!!!!SEGMENT: Wil2099-Pater_noster.krn
!!!id: Wil2099
!!!AGN: Motet
!!!voices: 6
!!!COM: Adrian Willaert
!!!OTL: Pater noster
**kern	**text	**kern	**text	**kern	**text	**kern	**text	**kern	**text	**kern	**text
*part6	*part6	*part5	*part5	*part4	*part4	*part3	*part3	*part2	*part2	*part1	*part1
*staff6	*staff6	*staff5	*staff5	*staff4	*staff4	*staff3	*staff3	*staff2	*staff2	*staff1	*staff1
*I"Bassus	*	*I"Tenor III	*	*I"Tenor II	*	*I"Tenor I	*	*I"Altus	*	*I"Superius	*
*I'B	*	*I'T. III	*	*I'T. II	*	*I'T. I	*	*I'A	*	*I'S	*
*clefF4	*	*clefGv2	*	*clefGv2	*	*clefGv2	*	*clefGv2	*	*clefG2	*
*k[b-]	*	*k[b-]	*	*k[b-]	*	*k[b-]	*	*k[b-]	*	*k[b-]	*
*F:	*	*F:	*	*F:	*	*F:	*	*F:	*	*F:	*
*M2/1	*	*M2/1	*	*M2/1	*	*M2/1	*	*M2/1	*	*M2/1	*
*met(C|)	*	*met(C|)	*	*met(C|)	*	*met(C|)	*	*met(C|)	*	*met(C|)	*
!!section: Prima pars: Pater roster
!!!OMD: Prima pars: Pater noster
=1	=1	=1	=1	=1	=1	=1	=1	=1	=1	=1	=1
0r	.	0r	.	0r	.	0r	.	0F	Pa-	0r	.
=2	=2	=2	=2	=2	=2	=2	=2	=2	=2	=2	=2
0r	.	0r	.	0r	.	0r	.	1G	-ter	0r	.
.	.	.	.	.	.	.	.	1A	no-	.	.
=3	=3	=3	=3	=3	=3	=3	=3	=3	=3	=3	=3
0r	.	0r	.	0r	.	0r	.	2A	-ster,	0f	Pa-
.	.	.	.	.	.	.	.	2A	qui	.	.
.	.	.	.	.	.	.	.	[1B-y	es	.	.
=4	=4	=4	=4	=4	=4	=4	=4	=4	=4	=4	=4
0r	.	0r	.	0r	.	0r	.	2B-]	.	1g	-ter
.	.	.	.	.	.	.	.	2B-y	in	.	.
.	.	.	.	.	.	.	.	2A	ce-	1a	no-
.	.	.	.	.	.	.	.	[2F	.	.	.
=5	=5	=5	=5	=5	=5	=5	=5	=5	=5	=5	=5
0r	.	0F	Pa-	0r	.	0r	.	4F]	.	1.a	-ster,
.	.	.	.	.	.	.	.	4G	.	.	.
.	.	.	.	.	.	.	.	4A	.	.	.
.	.	.	.	.	.	.	.	4B-y	.	.	.
.	.	.	.	.	.	.	.	2c	.	.	.
.	.	.	.	.	.	.	.	[2d	.	2a	qui
=6	=6	=6	=6	=6	=6	=6	=6	=6	=6	=6	=6
1r	.	1G	-ter	0r	.	0r	.	4d]	.	2b-y	es
.	.	.	.	.	.	.	.	4c	.	.	.
.	.	.	.	.	.	.	.	4d	.	2b-y	in
.	.	.	.	.	.	.	.	4e	.	.	.
[1D	Pa-	1A	no-	.	.	.	.	2f	.	2a	ce-
.	.	.	.	.	.	.	.	[2d	.	[2f	.
=7	=7	=7	=7	=7	=7	=7	=7	=7	=7	=7	=7
1D]	.	1A	-ster,	0r	.	0r	.	4d]	.	4f]	.
.	.	.	.	.	.	.	.	4e	.	4g	.
.	.	.	.	.	.	.	.	4f	.	4a	.
.	.	.	.	.	.	.	.	4d	.	4b-y	.
1C	-ter	1A	qui	.	.	.	.	1e	.	1cc	.
=8	=8	=8	=8	=8	=8	=8	=8	=8	=8	=8	=8
2.BB-y	no-	0B-y	es	0r	.	0r	.	1d	-lis,	1f	-lis,
4AA	.	.	.	.	.	.	.	.	.	.	.
2GG	.	.	.	.	.	.	.	[1d	Pa-	1r	.
[2BB-y	.	.	.	.	.	.	.	.	.	.	.
=9	=9	=9	=9	=9	=9	=9	=9	=9	=9	=9	=9
4BB-]	.	1B-y	in	0r	.	0r	.	1d]	.	[0f	Pa-
4C	.	.	.	.	.	.	.	.	.	.	.
4D	.	.	.	.	.	.	.	.	.	.	.
4E	.	.	.	.	.	.	.	.	.	.	.
2F	-ster,	1A	ce-	.	.	.	.	1c	-ter	.	.
2FF	qui	.	.	.	.	.	.	.	.	.	.
=10	=10	=10	=10	=10	=10	=10	=10	=10	=10	=10	=10
1.BB-y	es	2.D	.	0r	.	0r	.	1B-y	no-	0f]	.
.	.	4C	.	.	.	.	.	.	.	.	.
.	.	4D	.	.	.	.	.	1B-y	-ster,	.	.
.	.	4E	.	.	.	.	.	.	.	.	.
2BB-y	in	[2F	.	.	.	.	.	.	.	.	.
=11	=11	=11	=11	=11	=11	=11	=11	=11	=11	=11	=11
1GG	ce-	2F]	.	1r	.	0r	.	1B-y	qui	1g	-ter
.	.	2E	.	.	.	.	.	.	.	.	.
1FF	-lis,	4F	.	[1F	Pa-	.	.	[1A	es	1a	no-
.	.	4G	.	.	.	.	.	.	.	.	.
.	.	4A	.	.	.	.	.	.	.	.	.
.	.	4B-y	.	.	.	.	.	.	.	.	.
=12	=12	=12	=12	=12	=12	=12	=12	=12	=12	=12	=12
2r	.	1c	.	1F]	.	0r	.	2A]	.	1a	-ster,
1F	Pa-	.	.	.	.	.	.	2A	in	.	.
.	.	1C	-lis,	1G	-ter	.	.	[1c	ce-	2g	qui
2E	-ter	.	.	.	.	.	.	.	.	[2cc	es
=13	=13	=13	=13	=13	=13	=13	=13	=13	=13	=13	=13
0F	no-	2r	.	1A	no-	0r	.	0c]	.	2cc]	.
.	.	2.c	Pa-	.	.	.	.	.	.	2cc	in
.	.	.	.	1A	-ster,	.	.	.	.	1a	ce-
.	.	4B-y	.	.	.	.	.	.	.	.	.
.	.	[2A	-ter	.	.	.	.	.	.	.	.
=14	=14	=14	=14	=14	=14	=14	=14	=14	=14	=14	=14
2.D	.	4A]	.	1A	qui	1r	.	2d	-lis,	2f	-lis,
.	.	4G	.	.	.	.	.	.	.	.	.
.	.	4F	.	.	.	.	.	2.f	qui	2.d	qui
4C	.	4E	.	.	.	.	.	.	.	.	.
2.BB-y	.	2D	.	[1B-y	es	[1d	Pa-	.	.	.	.
.	.	.	.	.	.	.	.	4e	.	4e	.
.	.	[2D	no-	.	.	.	.	4d	.	2f	.
4AA	.	.	.	.	.	.	.	4c	.	.	.
=15	=15	=15	=15	=15	=15	=15	=15	=15	=15	=15	=15
1GG	-ster,	2D]	.	2B-]	.	1d]	.	2B-y	es	1.g	es
.	.	1G	.	2B-y	in	.	.	2d	in	.	.
1C	qui	.	.	[1G	ce-	1c	-ter	1e-X	ce-	.	.
.	.	2C	.	.	.	.	.	.	.	2g	in
=16	=16	=16	=16	=16	=16	=16	=16	=16	=16	=16	=16
1.GG	es	1D	-ster,	0G]	.	1B-y	no-	1d	-lis,	1g	ce-
.	.	2r	.	.	.	1B-y	-ster,	1r	.	1d	-lis,
2GG	in	[2D	qui	.	.	.	.	.	.	.	.
=17	=17	=17	=17	=17	=17	=17	=17	=17	=17	=17	=17
2.BB-y	ce-	4D]	.	[0F	-lis,	1B-y	qui	1.d	qui	1r	.
.	.	4C	.	.	.	.	.	.	.	.	.
.	.	4D	.	.	.	.	.	.	.	.	.
4C	.	4E	.	.	.	.	.	.	.	.	.
4D	.	4F	.	.	.	[1A	es	.	.	[1f	Pa-
4E	.	4G	.	.	.	.	.	.	.	.	.
[2F	.	4A	.	.	.	.	.	2c	es	.	.
.	.	4B-y	.	.	.	.	.	.	.	.	.
=18	=18	=18	=18	=18	=18	=18	=18	=18	=18	=18	=18
4F]	.	2c	.	1F]	.	2A]	.	2F	in	1f]	.
4E	.	.	.	.	.	.	.	.	.	.	.
2D	.	2d	es	.	.	2A	in	1f	ce-	.	.
1C	.	2G	in	1r	.	[1c	ce-	.	.	1g	-ter
.	.	4c	ce-	.	.	.	.	2e	.	.	.
.	.	4B-y	.	.	.	.	.	.	.	.	.
=19	=19	=19	=19	=19	=19	=19	=19	=19	=19	=19	=19
2.F	.	4A	.	0r	.	0c]	.	[0f	-lis,	1a	no-
.	.	4G	.	.	.	.	.	.	.	.	.
.	.	2.F	.	.	.	.	.	.	.	.	.
4G	.	.	.	.	.	.	.	.	.	.	.
2A	.	.	.	.	.	.	.	.	.	1a	-ster,
.	.	4G	.	.	.	.	.	.	.	.	.
[2F	.	2A	.	.	.	.	.	.	.	.	.
=20	=20	=20	=20	=20	=20	=20	=20	=20	=20	=20	=20
4F]	.	1D	-lis,	0r	.	[0d	-lis,	0f]	.	1a	qui
4E	.	.	.	.	.	.	.	.	.	.	.
4D	.	.	.	.	.	.	.	.	.	.	.
4C	.	.	.	.	.	.	.	.	.	.	.
2.BB-y	.	2r	.	.	.	.	.	.	.	[1b-y	es
.	.	2D	san-	.	.	.	.	.	.	.	.
4AA	.	.	.	.	.	.	.	.	.	.	.
=21	=21	=21	=21	=21	=21	=21	=21	=21	=21	=21	=21
1GG	-lis,	2D	-cti-	1G	san-	1d]	.	2r	.	2b-]	.
.	.	2D	-fi-	.	.	.	.	2B-y	san-	2b-y	in
1r	.	1E-X	-ce-	2G	-cti-	1r	.	2B-y	-cti-	1g	ce-
.	.	.	.	2G	-fi-	.	.	2c	-fi-	.	.
=22	=22	=22	=22	=22	=22	=22	=22	=22	=22	=22	=22
2r	.	0D	-tur	1A	-ce-	0r	.	1d	-ce-	2f	-lis,
2D	san-	.	.	.	.	.	.	.	.	2f	sanc-
2GG	-cti-	.	.	2G	-tur	.	.	2B-y	-tur	2d	-ti-
2D	-fi-	.	.	2F	no-	.	.	2A	no-	2d	-fi-
=23	=23	=23	=23	=23	=23	=23	=23	=23	=23	=23	=23
1C	-ce-	2r	.	2.G	-men	0r	.	1c	-men	1e-X	-ce-
.	.	1G	no-	.	.	.	.	.	.	.	.
.	.	.	.	4A	.	.	.	.	.	.	.
2GG	-tur	.	.	2B-y	.	.	.	1d	tu-	2d	-tur
2D	no-	2F	-men	[2A	tu-	.	.	.	.	2f	no-
=24	=24	=24	=24	=24	=24	=24	=24	=24	=24	=24	=24
1C	-men	2.E-X	tu-	2A]	.	1c	san-	1G	-um,	1g	-men
.	.	.	.	1G	.	.	.	.	.	.	.
.	.	4D	.	.	.	.	.	.	.	.	.
1AA	tu-	1C	.	.	.	2c	-cti-	1r	.	1a	tu-
.	.	.	.	2F#i	.	2c	-fi-	.	.	.	.
=25	=25	=25	=25	=25	=25	=25	=25	=25	=25	=25	=25
2GG	-um,	2D	-um,	1G	-um:	1B-y	-ce-	2r	.	1d	-um,
2GG	san-	1G	san-	.	.	.	.	2d	san-	.	.
2C	-cti-	.	.	1r	.	2c	-tur	2e-X	-cti-	1r	.
2BB-y	-fi-	2G	-cti-	.	.	2d	no-	2d	-fi-	.	.
=26	=26	=26	=26	=26	=26	=26	=26	=26	=26	=26	=26
2C	-ce-	2G	-fi-	0r	.	2.c	-men	2e-i	-ce-	1r	.
1FF	-tur	1A	-ce-	.	.	.	.	1c	-tur	.	.
.	.	.	.	.	.	4B-y	.	.	.	.	.
.	.	.	.	.	.	2A	.	.	.	1f	sanc-
2BB-y	no-	2D	-tur	.	.	[2B-y	tu-	[2d	no-	.	.
=27	=27	=27	=27	=27	=27	=27	=27	=27	=27	=27	=27
2GG	-men	2D	no-	0r	.	2B-]	.	2d]	.	2g	-ti-
2C	tu-	2E	-men	.	.	1c	.	2G	-men	2g	-fi-
2FF	-um,	2F	tu-	.	.	.	.	2c	tu-	[1a	-ce-
2F	no-	2D	-um:	.	.	2d	.	4F	.	.	.
.	.	.	.	.	.	.	.	4G	.	.	.
=28	=28	=28	=28	=28	=28	=28	=28	=28	=28	=28	=28
2F	-men	2r	.	0r	.	1c	-um:	4A	.	2a]	.
.	.	.	.	.	.	.	.	4B-y	.	.	.
2E-X	tu-	2G	Ad-	.	.	.	.	2c	.	1g	-tur
2D	-um:	2B-y	-ve-	.	.	1r	.	2.d	.	.	.
2D	Ad-	2A	-ni-	.	.	.	.	.	.	2f	no-
.	.	.	.	.	.	.	.	4c	.	.	.
=29	=29	=29	=29	=29	=29	=29	=29	=29	=29	=29	=29
2.E-i	-ve-	2G	-at	1r	.	0r	.	2B-y	.	2.g	-men
.	.	1G	re-	.	.	.	.	2c	.	.	.
4E-i	-ni-	.	.	.	.	.	.	.	.	4a	.
1D	-at,	.	.	2r	.	.	.	[1d	-um:	2b-y	.
.	.	2F	-gnum	2A	Ad-	.	.	.	.	[2a	tu-
=30	=30	=30	=30	=30	=30	=30	=30	=30	=30	=30	=30
!LO:TX:b:t=.	!	!	!	!	!	!	!	!	!	!	!
0r	.	1G	tu-	2.B-y	-ve-	0r	.	1d]	.	4a]	.
.	.	.	.	.	.	.	.	.	.	4g	.
.	.	.	.	.	.	.	.	.	.	1g	.
.	.	.	.	4B-y	-ni-	.	.	.	.	.	.
.	.	2D	-um,	1A	-at	.	.	2r	.	.	.
.	.	[2D	ad-	.	.	.	.	2A	Ad-	2f#i	.
=31	=31	=31	=31	=31	=31	=31	=31	=31	=31	=31	=31
1GG	ad	2D]	.	0G	re-	0r	.	2.B-y	-ve-	2g	-um:
.	.	2.G	-ve-	.	.	.	.	.	.	2d	Ad-
.	.	.	.	.	.	.	.	4B-y	-ni-	.	.
2.C	ve-	.	.	.	.	.	.	2G	-at	2.e	-ve-
.	.	4F	.	.	.	.	.	.	.	.	.
.	.	[2E	.	.	.	.	.	[2c	re-	.	.
4C	-ni-	.	.	.	.	.	.	.	.	4e	-ni-
=32	=32	=32	=32	=32	=32	=32	=32	=32	=32	=32	=32
2AA	-at	2E]	.	1A	-gnum	1r	.	2c]	.	2e	-at
2D	re-	2D	-ni-	.	.	.	.	2A	-gnum	2f	re-
4GG	-gnum	1D	-at	1G	tu-	2r	.	2B-y	tu-	2d	-gnum
4AA	.	.	.	.	.	.	.	.	.	.	.
4BB-y	.	.	.	.	.	2B-y	Ad-	[2d	.	4d	tu-
4C	.	.	.	.	.	.	.	.	.	4e	.
=33	=33	=33	=33	=33	=33	=33	=33	=33	=33	=33	=33
1D	.	2r	.	1F	-um,	2.A	-ve-	4d]	.	4f	.
.	.	.	.	.	.	.	.	4e	.	4g	.
.	.	1d	re-	.	.	.	.	1f	.	2a	.
.	.	.	.	.	.	4A	-ni-	.	.	.	.
1G	tu-	.	.	1r	.	1B-y	-at	.	.	2d	-um,
.	.	2B-y	-gnum	.	.	.	.	2e	.	2g	ad-
=34	=34	=34	=34	=34	=34	=34	=34	=34	=34	=34	=34
1F	-um,	2.A	tu-	0r	.	0c	re-	2f	-um,	2a	-ve-
.	.	.	.	.	.	.	.	2c	ad	2a	-ni-
.	.	4B-y	.	.	.	.	.	.	.	.	.
1C	ad-	2c	.	.	.	.	.	2.e	ve-	2g	-at
.	.	[2G	-um,	.	.	.	.	.	.	[2g	re-
.	.	.	.	.	.	.	.	4f	-ni-	.	.
=35	=35	=35	=35	=35	=35	=35	=35	=35	=35	=35	=35
1.E-X	-ve-	4G]	.	0r	.	1B-y	-gnum	2g	-at	2g]	.
.	.	4F	.	.	.	.	.	.	.	.	.
.	.	4E-X	.	.	.	.	.	2.G	re-	2g	-gnum
.	.	4D	.	.	.	.	.	.	.	.	.
.	.	2C	.	.	.	1c	tu-	.	.	1g	tu-
.	.	.	.	.	.	.	.	4F	.	.	.
2E-i	-ni-	2C	ad-	.	.	.	.	4G	.	.	.
.	.	.	.	.	.	.	.	4A	.	.	.
=36	=36	=36	=36	=36	=36	=36	=36	=36	=36	=36	=36
2D	-at	2.F	-ve-	2r	.	1d	-um,	2B-y	.	1f	-um,
2D	re-	.	.	2A	ad-	.	.	2A	.	.	.
.	.	4F	-ni-	.	.	.	.	.	.	.	.
!	!	!	!	!	!	!LO:TX:b:t=.	!	!	!	!	!
2GG	-gnum	[1D	-at,	2.B-y	-ve-	1r	.	2G	-gnum	2r	.
[2D	tu-	.	.	.	.	.	.	[2F	tu-	2d	ad-
.	.	.	.	4B-y	-ni-	.	.	.	.	.	.
=37	=37	=37	=37	=37	=37	=37	=37	=37	=37	=37	=37
4D]	.	1D]	.	1A	-at	0r	.	4F]	.	2.f	-ve-
4E	.	.	.	.	.	.	.	4G	.	.	.
2F	.	.	.	.	.	.	.	4A	.	.	.
.	.	.	.	.	.	.	.	4B-y	.	4f	-ni-
2C	-um,	2r	.	2.G	re-	.	.	2c	.	2e	-at
2C	re-	2E	ad	.	.	.	.	2G	-um,	2g	re-
.	.	.	.	4A	.	.	.	.	.	.	.
=38	=38	=38	=38	=38	=38	=38	=38	=38	=38	=38	=38
2D	-gnum	2.F	ve-	2B-y	.	0r	.	2r	.	2f	-gnum
2D	tu-	.	.	2A	-gnum	.	.	2A	ad-	2.d	tu-
.	.	4D	-ni-	.	.	.	.	.	.	.	.
4GG	.	[1D	-at	1G	tu-	.	.	2B-y	-ve-	.	.
4AA	.	.	.	.	.	.	.	.	.	4c	.
4BB-y	.	.	.	.	.	.	.	2B-y	-ni-	4d	.
4C	.	.	.	.	.	.	.	.	.	4e	.
=39	=39	=39	=39	=39	=39	=39	=39	=39	=39	=39	=39
2D	-um,	1D]	.	0F	-um:	2r	.	2A	-at	2f	-um,
2BB-y	ad-	.	.	.	.	2B-y	ad-	2d	re-	2f	ad-
2F	-ve-	2r	.	.	.	2.A	-ve-	2c	-gnum	2.a	-ve-
2D	-ni-	[2d	re-	.	.	.	.	[2f	tu-	.	.
.	.	.	.	.	.	4A	-ni-	.	.	4a	-ni-
=40	=40	=40	=40	=40	=40	=40	=40	=40	=40	=40	=40
1G	-at	2d]	.	0r	.	1B-y	-at	2f]	.	2g	-at
.	.	2G	-gnum	.	.	.	.	2e	.	2b-y	re-
[1F	re-	2.A	tu-	.	.	2.c	re-	1f	-um:	2a	-gnum
.	.	.	.	.	.	.	.	.	.	[2a	tu-
.	.	4B-y	.	.	.	4B-y	.	.	.	.	.
=41	=41	=41	=41	=41	=41	=41	=41	=41	=41	=41	=41
2F]	.	2c	.	0r	.	2A	.	0r	.	4a]	.
.	.	.	.	.	.	.	.	.	.	4g	.
2D	-gnum	2F	.	.	.	2B-y	-gnum	.	.	1f	.
1C	tu-	1G	-um:	.	.	1c	tu-	.	.	.	.
.	.	.	.	.	.	.	.	.	.	2e	.
=42	=42	=42	=42	=42	=42	=42	=42	=42	=42	=42	=42
2BB-y	-um:	2r	.	0r	.	0d	-um:	1r	.	[0f	-um:
2BB-y	Fi-	1B-y	Fi-	.	.	.	.	.	.	.	.
2.D	-at	.	.	.	.	.	.	1d	Fi-	.	.
.	.	2A	-at	.	.	.	.	.	.	.	.
4E	.	.	.	.	.	.	.	.	.	.	.
=43	=43	=43	=43	=43	=43	=43	=43	=43	=43	=43	=43
2F	.	2A	vo-	2r	.	0r	.	2c	-at	1f]	.
2FF	vo-	1c	-lun-	2A	Fi-	.	.	2c	vo-	.	.
1C	-lun-	.	.	2G	-at	.	.	1e-X	-lun-	1r	.
.	.	2C	-tas	2A	vo-	.	.	.	.	.	.
=44	=44	=44	=44	=44	=44	=44	=44	=44	=44	=44	=44
!	!	!	!	!	!	!LO:TX:b:t=.	!	!	!	!	!
2.BB-y	-tas	2.D	tu-	1.B-y	-lun-	0r	.	0d	-tas,	2r	.
.	.	.	.	.	.	.	.	.	.	2f	Fi-
4AA	.	4C	.	.	.	.	.	.	.	.	.
2GG	.	4D	.	.	.	.	.	.	.	2g	-at
.	.	4E	.	.	.	.	.	.	.	.	.
2D	tu-	2F	.	2A	-tas	.	.	.	.	2a	vo-
=45	=45	=45	=45	=45	=45	=45	=45	=45	=45	=45	=45
1GG	-a,	2D	-a,	0G	tu-	0r	.	2r	.	1.b-y	-lun-
.	.	2d	fi-	.	.	.	.	2B-y	fi-	.	.
1r	.	2B-y	-at	.	.	.	.	2d	-at	.	.
.	.	2B-y	vo-	.	.	.	.	2d	vo-	2g	-tas
=46	=46	=46	=46	=46	=46	=46	=46	=46	=46	=46	=46
2r	.	2c	-lun-	1F	-a,	2r	.	1.f	-lun-	2a	tu-
2BB-y	fi-	2d	-tas	.	.	2B-y	Fi-	.	.	2f	-a,
2F	-at	2A	tu-	1r	.	2c	-at	.	.	2r	.
2BB-y	vo-	2B-y	.	.	.	2B-y	vo-	2d	-tas	[2f	vo-
=47	=47	=47	=47	=47	=47	=47	=47	=47	=47	=47	=47
2.D	-lun-	1F	-a,	0r	.	1.A	-lun-	1d	tu-	2f]	.
.	.	.	.	.	.	.	.	.	.	2.a	-lun-
4E	.	.	.	.	.	.	.	.	.	.	.
2F	.	2.F	fi-	.	.	.	.	2c	.	.	.
.	.	.	.	.	.	.	.	.	.	4g	.
2BB-y	-tas,	.	.	.	.	2B-y	-tas	2d	.	2f	.
.	.	4G	.	.	.	.	.	.	.	.	.
=48	=48	=48	=48	=48	=48	=48	=48	=48	=48	=48	=48
2r	.	2A	.	2r	.	0c	tu-	4A	.	2e	-tas
.	.	.	.	.	.	.	.	4B-y	.	.	.
2FF	fi-	2F	-at	2A	fi-	.	.	4c	.	2.cc	tu-
.	.	.	.	.	.	.	.	4d	.	.	.
2C	-at	2r	.	2G	-at	.	.	2e	.	.	.
.	.	.	.	.	.	.	.	.	.	4b-y	.
2FF	vo-	2F	vo-	2A	vo-	.	.	[2f	.	4a	.
.	.	.	.	.	.	.	.	.	.	4g	.
=49	=49	=49	=49	=49	=49	=49	=49	=49	=49	=49	=49
2.BB-y	-lun-	2D	-lun-	1.B-y	-lun-	1d	-a,	2f]	.	2f	-a,
.	.	2.D	-tas	.	.	.	.	2d	.	2f	fi-
4AA	.	.	.	.	.	.	.	.	.	.	.
2GG	.	.	.	.	.	1r	.	1d	-a,	2g	-at
.	.	4E	.	.	.	.	.	.	.	.	.
2D	.	2F	tu-	2A	-tas	.	.	.	.	2a	vo-
=50	=50	=50	=50	=50	=50	=50	=50	=50	=50	=50	=50
1GG	.	2D	-a,	0G	tu-	0r	.	2r	.	1.b-y	-lun-
.	.	1d	vo-	.	.	.	.	2B-y	fi-	.	.
2GG	-tas,	.	.	.	.	.	.	2d	-at	.	.
2C	fi-	[2c	-lun-	.	.	.	.	2e	vo-	2g	-tas
=51	=51	=51	=51	=51	=51	=51	=51	=51	=51	=51	=51
2AA	-at	2c]	.	0F	-a,	2r	.	1f	-lun-	2a	tu-
2BB-y	vo-	2B-y	-tas	.	.	2B-y	fi-	.	.	2d	-a,
2F	-lun-	2A	tu-	.	.	2c	-at	2f	-tas	2r	.
2BB-y	-tas	[2D	-a,	.	.	2B-y	vo-	[2d	tu-	2f	vo-
=52	=52	=52	=52	=52	=52	=52	=52	=52	=52	=52	=52
2.F	tu-	4D]	.	1r	.	1.A	-lun-	2d]	.	2f	-lun-
.	.	4E	.	.	.	.	.	.	.	.	.
.	.	4F	.	.	.	.	.	2c	-a,	2.a	.
4E	.	4G	.	.	.	.	.	.	.	.	.
1D	.	2A	.	1F	si-	.	.	2r	.	.	.
.	.	.	.	.	.	.	.	.	.	4g	.
.	.	2D	si-	.	.	2B-y	-tas	2d	si-	2f	.
=53	=53	=53	=53	=53	=53	=53	=53	=53	=53	=53	=53
1C	-a,	2E	-cut	2G	-cut	0c	tu-	2g	-cut	2e	-tas
.	.	2G	in	2G	in	.	.	2e	in	1cc	tu-
1r	.	1F	ce-	[1A	ce-	.	.	1f	ce-	.	.
.	.	.	.	.	.	.	.	.	.	[2a	.
=54	=54	=54	=54	=54	=54	=54	=54	=54	=54	=54	=54
2r	.	1.D	-lo,	2A]	.	0d	-a,	2f	-lo,	2a]	.
2GG	si-	.	.	1G	-lo,	.	.	1d	et	2b-y	.
2D	-cut	.	.	.	.	.	.	.	.	1a	-a,
2D	in	2D	et	2F	et	.	.	2A	in	.	.
=55	=55	=55	=55	=55	=55	=55	=55	=55	=55	=55	=55
2C	ce-	2E	in	2G	in	1r	.	1c	ter-	2r	.
2FF	-lo	2.F	ter-	1A	ter-	.	.	.	.	2f	si-
2BB-y	et	.	.	.	.	1d	si-	1B-y	-ra,	2f	-cut
.	.	4D	.	.	.	.	.	.	.	.	.
2BB-y	in	2D	.	[2G	.	.	.	.	.	2g	in
=56	=56	=56	=56	=56	=56	=56	=56	=56	=56	=56	=56
1AA	ter-	2E	.	2G]	.	2c	-cut	1r	.	1a	ce-
.	.	2C	.	2F#i	.	2c	in	.	.	.	.
2GG	-ra,	2D	-ra,	1G	-ra,	[1B-y	ce-	2r	.	2d	-lo,
[2GG	si-	2D	si-	.	.	.	.	2d	si-	2g	si-
=57	=57	=57	=57	=57	=57	=57	=57	=57	=57	=57	=57
2GG]	.	2G	-cut	0r	.	2B-]	.	2d	-cut	2g	-cut
2C	-cut	2C	in	.	.	1c	-lo,	2e	in	2g	in
2FF	in	2F	ce-	.	.	.	.	[1f	ce-	2.a	ce-
[2F	ce-	2D	-lo,	.	.	2d	et	.	.	.	.
.	.	.	.	.	.	.	.	.	.	4g	.
=58	=58	=58	=58	=58	=58	=58	=58	=58	=58	=58	=58
2F]	.	2r	.	1F	si-	2c	in	2f]	.	2a	.
2BB-y	-lo,	2D	si-	.	.	1B-y	ter-	1d	-lo	2b-y	.
1r	.	2G	-cut	2G	-cut	.	.	.	.	2g	-lo,
.	.	2C	in	2G	in	[2c	.	2e-X	et	2g	et
=59	=59	=59	=59	=59	=59	=59	=59	=59	=59	=59	=59
1r	.	2F	ce-	1.A	ce-	2c]	.	2c	in	2.f	in
.	.	2D	-lo,	.	.	2d	.	2.f	ter-	.	.
.	.	.	.	.	.	.	.	.	.	4g	.
2r	.	2F	et	.	.	1c	-ra,	.	.	4a	.
.	.	.	.	.	.	.	.	4c	.	4f	.
2C	si-	2C	in	[2G	-lo,	.	.	2e-X	.	2cc	.
=60	=60	=60	=60	=60	=60	=60	=60	=60	=60	=60	=60
2GG	-cut	1D	ter-	2G]	.	0r	.	2d	.	2b-y	ter-
2D	in	.	.	2F	et	.	.	2A	.	2a	-ra,
2C	ce-	2E	-ra,	2G	in	.	.	1c	.	2r	.
2FF	-lo,	[2F	et	[2A	ter-	.	.	.	.	2f	si-
=61	=61	=61	=61	=61	=61	=61	=61	=61	=61	=61	=61
2BB-y	et	2F]	.	2A]	.	1d	si-	1B-y	-ra,	2f	-cut
2BB-y	in	2D	in	1G	.	.	.	.	.	2g	in
1AA	ter-	2E	ter-	.	.	2c	-cut	1r	.	1a	ce-
.	.	2C	.	2F#i	.	2c	in	.	.	.	.
=62	=62	=62	=62	=62	=62	=62	=62	=62	=62	=62	=62
1GG	-ra,	2D	-ra,	1G	-ra.	1.B-y	ce-	2r	.	2d	-lo,
.	.	2D	si-	.	.	.	.	2d	si-	2g	si-
1r	.	2G	-cut	1r	.	.	.	2d	-cut	2g	-cut
.	.	2C	in	.	.	[2c	-lo,	2e	in	2g	in
=63	=63	=63	=63	=63	=63	=63	=63	=63	=63	=63	=63
1r	.	2F	ce-	0r	.	2c]	.	1.f	ce-	1.a	ce-
.	.	2D	-lo,	.	.	2d	et	.	.	.	.
2r	.	2F	et	.	.	2c	in	.	.	.	.
2BB-y	si-	2F	in	.	.	[2B-y	ter-	2d	-lo,	2b-y	-lo,
=64	=64	=64	=64	=64	=64	=64	=64	=64	=64	=64	=64
2E-i	-cut	1G	ter-	1r	.	2B-]	.	1e-X	et	1g	et
2C	in	.	.	.	.	1c	.	.	.	.	.
2F	ce-	1A	-ra.	2r	.	.	.	2c	in	2.f	in
2D	-lo,	.	.	[2F	Pa-	2d	.	[2f	ter-	.	.
.	.	.	.	.	.	.	.	.	.	4g	.
=65	=65	=65	=65	=65	=65	=65	=65	=65	=65	=65	=65
2F	et	1r	.	2F]	.	1c	-ra.	4f]	.	2a	.
.	.	.	.	.	.	.	.	4e	.	.	.
2E-X	in	.	.	2G	-nem	.	.	2c	.	1g	ter-
1D	ter-	1A	Pa-	1A	no-	1r	.	2d	-ra.	.	.
.	.	.	.	.	.	.	.	[2d	Pa-	2f#i	.
=66	=66	=66	=66	=66	=66	=66	=66	=66	=66	=66	=66
2GG	-ra.	2B-y	-nem	1G	-strum	0r	.	2d]	.	1g	-ra.
2C	Pa-	1c	no-	.	.	.	.	2e	-nem	.	.
2FF	-nem	.	.	2A	quo-	.	.	2f	no-	2r	.
[2BB-y	no-	[2F	-strum	[2B-y	-ti-	.	.	[2d	-strum,	[2f	Pa-
=67	=67	=67	=67	=67	=67	=67	=67	=67	=67	=67	=67
4BB-]	.	2F]	.	2B-]	.	1r	.	2d]	.	2f]	.
4C	.	.	.	.	.	.	.	.	.	.	.
2D	.	2F	quo-	2A	-di-	.	.	1d	pa-	2f	-nem
1GG	-strum,	[1D	-ti-	1G	-a-	2r	.	.	.	1b-y	no-
.	.	.	.	.	.	[2d	Pa-	2B-y	-nem	.	.
=68	=68	=68	=68	=68	=68	=68	=68	=68	=68	=68	=68
0r	.	2D]	.	1F	-num,	2d]	.	1f	no-	2a	-strum
.	.	2A	-di-	.	.	2c	-nem	.	.	2a	quo-
.	.	1G	-a-	1r	.	1B-y	no-	1d	-strum	2b-y	-ti-
.	.	.	.	.	.	.	.	.	.	2g	-di-
=69	=69	=69	=69	=69	=69	=69	=69	=69	=69	=69	=69
0r	.	1F	-num,	0r	.	1c	-strum	2r	.	2a	-a-
.	.	.	.	.	.	.	.	2A	quo-	2.f	.
.	.	2r	.	.	.	2B-y	quo-	2d	-ti-	.	.
.	.	.	.	.	.	.	.	.	.	4g	.
.	.	2F	quo-	.	.	[2A	-ti-	2c	-di-	2a	.
=70	=70	=70	=70	=70	=70	=70	=70	=70	=70	=70	=70
1r	.	2D	-ti-	1r	.	2A]	.	2.d	-a-	2f	.
.	.	2G	-di-	.	.	2B-y	-di-	.	.	1b-y	.
.	.	.	.	.	.	.	.	4e	.	.	.
1FF	pa-	1F	-a-	2r	.	1c	-a-	2f	.	.	.
.	.	.	.	[2F	pa-	.	.	[2f	-num,	2a	.
=71	=71	=71	=71	=71	=71	=71	=71	=71	=71	=71	=71
2BB-y	-nem	2D	-num,	2F]	.	1d	-num,	2f]	.	1b-y	-num,
2BB-y	no-	2D	pa-	2G	-nem	.	.	4e	.	.	.
.	.	.	.	.	.	.	.	4d	.	.	.
2AA	-strum	2E	-nem	1A	no-	1r	.	2c	.	2r	.
2D	quo-	2F	no-	.	.	.	.	[2d	pa-	2a	pa-
=72	=72	=72	=72	=72	=72	=72	=72	=72	=72	=72	=72
2GG	-ti-	2D	-strum	1G	-strum	0r	.	2d]	.	2b-y	-nem
2C	-di-	2C	quo-	.	.	.	.	2e	-nem	1cc	no-
2FF	-a-	2C	-ti-	2A	quo-	.	.	2f	no-	.	.
[2BB-y	.	[2D	-di-	[2B-y	-ti-	.	.	[2d	-strum,	[2f	-strum
=73	=73	=73	=73	=73	=73	=73	=73	=73	=73	=73	=73
4BB-]	.	4D]	.	2B-]	.	1r	.	2d]	.	4f]	.
4C	.	4E	.	.	.	.	.	.	.	4e	.
2D	.	2F	-a-	2A	-di-	.	.	1d	pa-	4d	.
.	.	.	.	.	.	.	.	.	.	4c	.
2.GG	.	2D	-num	1G	-a-	2r	.	.	.	2B-y	.
.	.	2D	da	.	.	[2d	pa-	2B-y	-nem	[2b-y	pa-
4AA	.	.	.	.	.	.	.	.	.	.	.
=74	=74	=74	=74	=74	=74	=74	=74	=74	=74	=74	=74
2BB-y	.	2D	no-	1F	-num	2d]	.	1f	no-	2b-]	.
2FF	-num,	2A	-bis	.	.	2c	-nem	.	.	2a	-nem
1r	.	1G	ho-	1r	.	1B-y	no-	1d	-strum	2b-y	no-
.	.	.	.	.	.	.	.	.	.	2g	-strum
=75	=75	=75	=75	=75	=75	=75	=75	=75	=75	=75	=75
1r	.	2.F	-di-	0r	.	1c	-strum	2r	.	2a	quo-
.	.	.	.	.	.	.	.	2A	quo-	2.f	-ti-
.	.	4E	.	.	.	.	.	.	.	.	.
2r	.	1D	-e,	.	.	2B-y	quo-	2d	-ti-	.	.
.	.	.	.	.	.	.	.	.	.	4g	.
2F	quo-	.	.	.	.	[2A	-ti-	2d	-di-	2a	.
=76	=76	=76	=76	=76	=76	=76	=76	=76	=76	=76	=76
2D	-ti-	1r	.	0r	.	2A]	.	2.d	-a-	2f	-di-
2G	-di-	.	.	.	.	2B-y	-di-	.	.	4d	-a-
.	.	.	.	.	.	.	.	8cL	.	4e	.
.	.	.	.	.	.	.	.	8B-yJ	.	.	.
2.F	-a-	1A	da	.	.	1c	-a-	2A	.	4f	.
.	.	.	.	.	.	.	.	.	.	4g	.
.	.	.	.	.	.	.	.	[2c	.	[2a	.
4E	.	.	.	.	.	.	.	.	.	.	.
=77	=77	=77	=77	=77	=77	=77	=77	=77	=77	=77	=77
1D	.	1F	no-	1r	.	1d	-num,	4c]	.	4a]	.
.	.	.	.	.	.	.	.	4B-y	.	4g	.
.	.	.	.	.	.	.	.	4B-y	.	1f	.
.	.	.	.	.	.	.	.	8AL	.	.	.
.	.	.	.	.	.	.	.	8B-yJ	.	.	.
1C	-num	1G	-bis	1G	da	1r	.	2c	-num	.	.
.	.	.	.	.	.	.	.	2c	da	2e	.
=78	=78	=78	=78	=78	=78	=78	=78	=78	=78	=78	=78
2r	.	2A	ho-	1.F	no-	0r	.	2c	no-	1f	-num
2FF	da	2A	-di-	.	.	.	.	2c	-bis	.	.
2BB-y	no-	2D	-e:	.	.	.	.	2d	ho-	1r	.
2GG	-bis	2D	Et	2G	-bis	.	.	2B-y	-di-	.	.
=79	=79	=79	=79	=79	=79	=79	=79	=79	=79	=79	=79
2D	ho-	2F	di-	2A	ho-	0r	.	2A	-e:	1r	.
2BB-y	-di-	2F	-mit-	2B-y	-di-	.	.	2d	Et	.	.
2C	-e:	2E	-te	2G	-e:	.	.	2c	di-	2r	.
4GG	.	2G	no-	[2G	Et	.	.	[2B-y	-mit-	2d	da
4AA	.	.	.	.	.	.	.	.	.	.	.
=80	=80	=80	=80	=80	=80	=80	=80	=80	=80	=80	=80
4BB-y	.	1D	-bis	2G]	.	1r	.	2B-]	.	1d	no-
4C	.	.	.	.	.	.	.	.	.	.	.
2D	Et	.	.	2F	di-	.	.	2A	-te	.	.
2C	di-	1r	.	2G	-mit-	1c	da	1c	no-	1e	-bis
2C	-mit-	.	.	2G	-te	.	.	.	.	.	.
=81	=81	=81	=81	=81	=81	=81	=81	=81	=81	=81	=81
2BB-y	-te	0r	.	1B-y	no-	1.d	no-	1F	-bis	1.f	ho-
2.D	.	.	.	.	.	.	.	.	.	.	.
.	.	.	.	1A	-bis	.	.	1F	de-	.	.
4E	.	.	.	.	.	.	.	.	.	.	.
2F	.	.	.	.	.	2c	-bis	.	.	2f	-di-
=82	=82	=82	=82	=82	=82	=82	=82	=82	=82	=82	=82
2BB-y	no-	1D	de-	1r	.	2B-y	ho-	2F	-bi-	2d	-e:
2D	-bis	.	.	.	.	2A	-di-	2F	-ta	2f	Et
2C	de-	2E	-bi-	2r	.	2c	-e:	1G	no-	2e	di-
2C	-bi-	2E	-ta	2G	de-	[2c	Et	.	.	2g	-mit-
=83	=83	=83	=83	=83	=83	=83	=83	=83	=83	=83	=83
2F	-ta	1F	no-	2A	-bi-	2c]	.	1F	-stra,	2c	-te
2BB-y	no-	.	.	2B-y	-ta	2d	di-	.	.	1f	no-
1C	.	2C	-stra,	1G	no-	2c	-mit-	1r	.	.	.
.	.	2c	et	.	.	2c	-te	.	.	2e	.
=84	=84	=84	=84	=84	=84	=84	=84	=84	=84	=84	=84
1FF	.	2c	di-	0F	-stra,	1A	no-	2r	.	1f	.
.	.	2c	-mit-	.	.	.	.	2f	de-	.	.
1BB-y	-stra,	2F	-te	.	.	1B-y	-bis	2f	-bi-	2.d	-bis,
.	.	[2B-y	no-	.	.	.	.	2f	-ta	.	.
.	.	.	.	.	.	.	.	.	.	4e	.
=85	=85	=85	=85	=85	=85	=85	=85	=85	=85	=85	=85
2r	.	2B-]	.	0r	.	1r	.	1d	no-	1f	.
2D	de-	2A	-bis	.	.	.	.	.	.	.	.
2E	-bi-	2G	de-	.	.	2r	.	1c	.	2r	.
2F	-ta	2A	-bi-	.	.	2c	de-	.	.	2f	et
=86	=86	=86	=86	=86	=86	=86	=86	=86	=86	=86	=86
1D	no-	1F	-ta	1r	.	2B-y	-bi-	1d	-stra,	2f	di-
.	.	.	.	.	.	2A	-ta	.	.	1f	-mit-
1C	-stra,	1G	no-	2r	.	1c	no-	1r	.	.	.
.	.	.	.	[2G	et	.	.	.	.	2e	-te
=87	=87	=87	=87	=87	=87	=87	=87	=87	=87	=87	=87
1r	.	2D	-stra,	2G]	.	0d	-stra,	1A	de-	1a	no-
.	.	2D	de-	2F	de-	.	.	.	.	.	.
1GG	et	2D	-bi-	2G	-mit-	.	.	2B-y	-bi-	2g	-bis
.	.	2D	-ta	2G	-te	.	.	2B-y	-ta	[2d	de-
=88	=88	=88	=88	=88	=88	=88	=88	=88	=88	=88	=88
2GG	di-	2.D	no-	1B-y	no-	0r	.	2G	no-	4d]	.
.	.	.	.	.	.	.	.	.	.	4e	.
1D	-mit-	.	.	.	.	.	.	1F	-stra,	4f	.
.	.	4E	.	.	.	.	.	.	.	4g	.
.	.	2F	.	2A	-bis	.	.	.	.	4a	.
.	.	.	.	.	.	.	.	.	.	4d	.
2E	-te	2C	.	2G	de-	.	.	[2c	et	2g	.
=89	=89	=89	=89	=89	=89	=89	=89	=89	=89	=89	=89
2F	no-	1F	-stra,	2A	-bi-	1r	.	2c]	.	2c	-bi-
2BB-y	.	.	.	2B-y	-ta	.	.	2d	di-	1f	-ta
1C	-bis	1r	.	1G	no-	2r	.	2c	-mit-	.	.
.	.	.	.	.	.	[2c	et	2c	-te	2e	no-
=90	=90	=90	=90	=90	=90	=90	=90	=90	=90	=90	=90
2r	.	2r	.	1F	-stra,	2c]	.	2A	no-	1f	-stra,
2BB-y	de-	1F	si-	.	.	2d	de-	2B-y	-bis	.	.
2F	-bit-	.	.	1r	.	2c	-mit-	2A	de-	2r	.
2C	-ta	2E	-cut	.	.	2c	-te	2G	-bi-	[2g	sic-
=91	=91	=91	=91	=91	=91	=91	=91	=91	=91	=91	=91
1D	no-	2F	et	1r	.	1A	no-	2d	-ta	2g]	.
.	.	1D	nos	.	.	.	.	1d	no-	2f	-ut
2GG	-stra,	.	.	2r	.	2B-y	-bis	.	.	[1g	et
2C	si-	2E	di-	[2G	si-	2c	de-	2G	-stra,	.	.
=92	=92	=92	=92	=92	=92	=92	=92	=92	=92	=92	=92
2GG	-cut	2.D	-mit-	2G]	.	2B-y	-bi-	2.d	de-	2g]	.
2D	et	.	.	2F	-cut	2A	-ta	.	.	2a	nos
.	.	4D	.	.	.	.	.	4d	-bi-	.	.
2C	nos	2E	.	2G	et	1c	no-	2G	-ta	2r	.
2AA	di-	2F	-ti-	[2A	nos	.	.	2c	no-	2a	di-
=93	=93	=93	=93	=93	=93	=93	=93	=93	=93	=93	=93
2BB-y	-mit-	1D	-mus,	2A]	.	1d	-stra,	2B-y	-stra,	2f	-mit-
2BB-y	-ti-	.	.	2G	di-	.	.	1d	si-	4e	.
.	.	.	.	.	.	.	.	.	.	4d	.
1AA	-mus	1r	.	[1A	-mit-	1r	.	.	.	2f	.
.	.	.	.	.	.	.	.	2c	-cut	2e	.
=94	=94	=94	=94	=94	=94	=94	=94	=94	=94	=94	=94
1D	.	1F	si-	2A]	.	1r	.	2d	et	4f	-ti-
.	.	.	.	.	.	.	.	.	.	4g	.
.	.	.	.	2A	-ti-	.	.	1f	nos	4a	.
.	.	.	.	.	.	.	.	.	.	4b-y	.
1r	.	2C	-cut	1G	-mus	2r	.	.	.	2.cc	.
.	.	2C	et	.	.	[2c	si-	2e	di-	.	.
.	.	.	.	.	.	.	.	.	.	4b-y	.
=95	=95	=95	=95	=95	=95	=95	=95	=95	=95	=95	=95
0r	.	2.F	nos	0r	.	2c]	.	1.f	-mit-	2a	-mus
.	.	.	.	.	.	2d	-cut	.	.	1a	de-
.	.	4G	.	.	.	.	.	.	.	.	.
.	.	2A	.	.	.	2c	et	.	.	.	.
.	.	2B-y	di-	.	.	[2B-y	nos	2d	-ti-	2f	-bi-
=96	=96	=96	=96	=96	=96	=96	=96	=96	=96	=96	=96
1r	.	2G	-mit-	1r	.	2B-]	.	2d	-mus	2g	-to-
.	.	2F	-ti-	.	.	2c	di-	2.f	de-	2a	-ri-
2.BB-y	de-	2D	-mus	1F	de-	[1B-y	-mit-	.	.	1b-y	-bus
.	.	.	.	.	.	.	.	4e	.	.	.
.	.	[2D	de-	.	.	.	.	4d	.	.	.
4AA	-bi-	.	.	.	.	.	.	4c	.	.	.
=97	=97	=97	=97	=97	=97	=97	=97	=97	=97	=97	=97
2GG	-to-	2D]	.	1G	-bi-	2B-]	.	4B-y	.	1b-y	no-
.	.	.	.	.	.	.	.	4G	.	.	.
2GG	-ri-	2D	-bi-	.	.	2B-y	-ti-	2g	.	.	.
2.FF	-bus	2F	-to-	[1A	-to-	1c	-mus	2c	-bi-	2a	-stris,
.	.	2F	-ri-	.	.	.	.	[2f	-to-	2a	de-
4GG	.	.	.	.	.	.	.	.	.	.	.
=98	=98	=98	=98	=98	=98	=98	=98	=98	=98	=98	=98
4AA	.	1.C	-bus	2A]	.	0r	.	2f]	.	2cc	-bi-
4BB-y	.	.	.	.	.	.	.	.	.	.	.
2C	.	.	.	2G	-ri-	.	.	2e	-ri-	1cc	-to-
2AA	no-	.	.	1F	-bus	.	.	2f	-bus	.	.
2BB-y	.	[2D	no-	.	.	.	.	[2d	no-	2b-y	-ri-
=99	=99	=99	=99	=99	=99	=99	=99	=99	=99	=99	=99
2GG	.	2D]	.	1G	no-	1r	.	2d]	.	2b-y	-bus
2C	.	2E-X	.	.	.	.	.	1c	.	2.g	no-
1GG	-stris.	2D	-stris.	1G	-stris.	1d	de-	.	.	.	.
.	.	.	.	.	.	.	.	.	.	4f	.
.	.	[2G	Et	.	.	.	.	2B-y	.	2d	.
=100	=100	=100	=100	=100	=100	=100	=100	=100	=100	=100	=100
1C	Et	2G]	.	2r	.	1c	-bi-	2c	-stris.	2e	-stris.
.	.	2C	ne	1G	Et	.	.	2e	Et	2g	Et
1GG	ne	2D	nos	.	.	[1B-y	-to-	2d	ne	2g	ne
.	.	2G	in-	[2D	ne	.	.	[2d	nos	[2b-y	nos
=101	=101	=101	=101	=101	=101	=101	=101	=101	=101	=101	=101
2BB-y	nos	1F	-du-	2D]	.	2B-]	.	2d]	.	2b-]	.
2FF	in-	.	.	1F	nos	2c	-ri-	2c	in-	2a	in-
1BB-y	-du-	1D	-cas,	.	.	1d	-bus	2B-y	-du-	1b-y	-du-
.	.	.	.	2G	in-	.	.	2B-y	-cas	.	.
=102	=102	=102	=102	=102	=102	=102	=102	=102	=102	=102	=102
1FF	-cas,	1F	et	1A	-du-	1c	no-	2r	.	2a	-cas
.	.	.	.	.	.	.	.	2f	et	1cc	in
2r	.	2C	ne	[1G	-cas	1c	-stris,	2e	ne	.	.
[2C	et	[2E	nos	.	.	.	.	[2g	nos	2cc	ten-
=103	=103	=103	=103	=103	=103	=103	=103	=103	=103	=103	=103
2C]	.	2E]	.	1G]	.	2r	.	2g]	.	2cc	-ta-
2E	ne	2G	in-	.	.	1c	et	2g	in	2cc	-ti-
2F	nos	2.A	-du-	1r	.	.	.	2.f	du-	1cc	-o-
2FF	in-	.	.	.	.	[2f	ne	.	.	.	.
.	.	4G	.	.	.	.	.	4e	.	.	.
=104	=104	=104	=104	=104	=104	=104	=104	=104	=104	=104	=104
2.BB-y	-du-	2F	.	1r	.	2f]	.	4d	.	1b-y	-nem,
.	.	.	.	.	.	.	.	4c	.	.	.
.	.	2.G	.	.	.	1d	nos	1B-y	.	.	.
4AA	.	.	.	.	.	.	.	.	.	.	.
2GG	.	.	.	[1G	in	.	.	.	.	1r	.
.	.	4F	.	.	.	.	.	.	.	.	.
2C	.	2E	.	.	.	2c	in	4A	.	.	.
.	.	.	.	.	.	.	.	4G	.	.	.
=105	=105	=105	=105	=105	=105	=105	=105	=105	=105	=105	=105
1GG	-cas	1D	.	2G]	.	1B-y	du-	1d	.	2r	.
.	.	.	.	2G	ten-	.	.	.	.	1g	in
2r	.	2C	-cas	2G	-ta-	[1c	-cas	2e-X	-cas	.	.
[2C	in	[2c	in	2G	-ti-	.	.	[2e-i	in	2g	ten-
=106	=106	=106	=106	=106	=106	=106	=106	=106	=106	=106	=106
2C]	.	2c]	.	0G	-o-	1c]	.	2e-]	.	2g	-ta-
2C	ten-	2c	ten-	.	.	.	.	2e-i	ten-	2g	-ti-
2GG	-ta-	2B-y	-ta-	.	.	1r	.	2d	-ta-	[1b-y	-o-
2GG	-ti-	2B-y	-ti-	.	.	.	.	2d	-ti-	.	.
=107	=107	=107	=107	=107	=107	=107	=107	=107	=107	=107	=107
1BB-y	-o-	1B-y	-o-	1F	-nem.	1r	.	1d	-o-	2b-]	.
.	.	.	.	.	.	.	.	.	.	2f	-nem.
1FF	-nem.	2.A	-nem.	1F	Sed	[1c	in	1c	-nem.	1cc	Sed
.	.	8GL	.	.	.	.	.	.	.	.	.
.	.	8FJ	.	.	.	.	.	.	.	.	.
=108	=108	=108	=108	=108	=108	=108	=108	=108	=108	=108	=108
1C	Sed	2E	.	2.G	li-	2c]	.	2r	.	2.cc	li-
.	.	2E	Sed	.	.	2c	ten-	2g	Sed	.	.
.	.	.	.	4G	-be-	.	.	.	.	4cc	-be-
2.C	li-	2.E	li-	2G	-ra	2c	-ta-	2.g	li-	2g	-ra
.	.	.	.	2G	nos	2c	-ti-	.	.	2cc	nos
4C	-be-	4E	-be-	.	.	.	.	4g	-be-	.	.
=109	=109	=109	=109	=109	=109	=109	=109	=109	=109	=109	=109
4FF	-ra	2F	-ra-	1A	a	0c	-o-	2f	-ra	2a	a
4GG	.	.	.	.	.	.	.	.	.	.	.
4AA	.	1C	-nos	.	.	.	.	2e	nos	2.cc	ma-
4BB-y	.	.	.	.	.	.	.	.	.	.	.
1C	.	.	.	[1G	ma-	.	.	2e	a	.	.
.	.	.	.	.	.	.	.	.	.	4b-y	.
.	.	2E-X	a	.	.	.	.	[2g	ma-	4g	.
.	.	.	.	.	.	.	.	.	.	4a	.
=110	=110	=110	=110	=110	=110	=110	=110	=110	=110	=110	=110
2.GG	nos	1D	ma-	1G]	.	1d	-nem,	2g]	.	0b-y	.
.	.	.	.	.	.	.	.	2d	-lo,	.	.
4AA	.	.	.	.	.	.	.	.	.	.	.
1BB-y	.	2.D	-lo,	1F	-lo,	1d	sed	2r	.	.	.
.	.	.	.	.	.	.	.	2f	sed	.	.
.	.	4E	.	.	.	.	.	.	.	.	.
=111	=111	=111	=111	=111	=111	=111	=111	=111	=111	=111	=111
1FF	a	2F	.	2r	.	2.c	li-	2.f	li-	1a	-lo,
.	.	2C	.	2F	sed	.	.	.	.	.	.
.	.	.	.	.	.	4c	-be-	4f	-be-	.	.
1C	ma-	2r	.	2.G	li-	2c	-ra	2e	-ra	2r	.
.	.	2E	sed	.	.	2c	nos	[2g	nos	2g	sed
.	.	.	.	4G	-be-	.	.	.	.	.	.
=112	=112	=112	=112	=112	=112	=112	=112	=112	=112	=112	=112
1GG	-lo,	2D	li-	2G	-ra	1B-y	a	2g]	.	2.b-y	li-
.	.	2G	-be-	2G	nos	.	.	2d	a	.	.
.	.	.	.	.	.	.	.	.	.	4b-y	-be-
2r	.	2F	-ra	1A	a	[1c	ma-	1f	ma-	2a	-ra
2FF	sed	[2C	nos	.	.	.	.	.	.	[2cc	nos
=113	=113	=113	=113	=113	=113	=113	=113	=113	=113	=113	=113
2.C	li-	2C]	.	0G	ma-	1c]	.	2e	-lo,	2cc]	.
.	.	2E-X	a	.	.	.	.	2g	sed	2g	a
4C	-be-	.	.	.	.	.	.	.	.	.	.
1GG	-ra	1D	ma-	.	.	1d	-lo,	2g	li-	[1b-y	ma-
.	.	.	.	.	.	.	.	2d	-be-	.	.
=114	=114	=114	=114	=114	=114	=114	=114	=114	=114	=114	=114
1BB-y	nos	1D	-lo,	1F	-lo.	2r	.	2d	-ra	1b-]	.
.	.	.	.	.	.	2d	sed	1f	nos	.	.
1FF	a	2r	.	1r	.	2.c	li-	.	.	2a	-lo,
.	.	2A	sed	.	.	.	.	2c	a	2f	sed
.	.	.	.	.	.	4c	-be-	.	.	.	.
=115	=115	=115	=115	=115	=115	=115	=115	=115	=115	=115	=115
1C	ma-	2.G	li-	0r	.	2c	-ra	1e-X	ma-	2.g	li-
.	.	.	.	.	.	2c	nos	.	.	.	.
.	.	4G	-be-	.	.	.	.	.	.	4g	-be-
1GG	-lo,	2G	-ra	.	.	1B-y	a	2.d	-lo.	2g	-ra
.	.	2D	nos	.	.	.	.	.	.	2g	nos
.	.	.	.	.	.	.	.	8cL	.	.	.
.	.	.	.	.	.	.	.	8B-yJ	.	.	.
=116	=116	=116	=116	=116	=116	=116	=116	=116	=116	=116	=116
2r	.	1F	a	1F	A-	0c	ma-	1A	.	1a	a
2FF	sed	.	.	.	.	.	.	.	.	.	.
2C	li-	1E-X	ma-	1G	.	.	.	1r	.	1g	ma-
2C	-be-	.	.	.	.	.	.	.	.	.	.
=117	=117	=117	=117	=117	=117	=117	=117	=117	=117	=117	=117
2.F	-ra	1D	-lo.	2.A	.	1d	-lo.	2r	.	2f	-lo.
.	.	.	.	.	.	.	.	2.A	A-	4d	A-
4E	.	.	.	4G	.	.	.	.	.	4e	.
2D	.	1A	A-	2F	.	1r	.	.	.	4f	.
.	.	.	.	.	.	.	.	4B-y	.	4g	.
2C	.	.	.	2E	.	.	.	4c	.	[2a	.
.	.	.	.	.	.	.	.	4A	.	.	.
=118	=118	=118	=118	=118	=118	=118	=118	=118	=118	=118	=118
2BB-y	nos	2D	.	2F	.	0r	.	1B-y	.	2a]	.
2GG	a	2.d	.	2G	.	.	.	.	.	1g	.
1D	ma-	.	.	1A	.	.	.	2A	.	.	.
.	.	4c	.	.	.	.	.	.	.	.	.
.	.	2A	.	.	.	.	.	[2d	.	2f#i	.
=119	=119	=119	=119	=119	=119	=119	=119	=119	=119	=119	=119
1GG	-lo,	4B-y	.	[0Gl	-men.	1d	A-	2d]	.	[0gl	-men.
.	.	4A	.	.	.	.	.	.	.	.	.
.	.	4G	.	.	.	.	.	2B-y	.	.	.
.	.	4F	.	.	.	.	.	.	.	.	.
1C	A-	2E-X	.	.	.	1c	.	1e-i	.	.	.
.	.	2C	.	.	.	.	.	.	.	.	.
=120	=120	=120	=120	=120	=120	=120	=120	=120	=120	=120	=120
[0GGl	-men.	2D	.	0G_	.	[0B-yl	-men.	[0dl	-men.	0g_	.
.	.	1G	.	.	.	.	.	.	.	.	.
.	.	4F	.	.	.	.	.	.	.	.	.
.	.	4E	.	.	.	.	.	.	.	.	.
=	=	=	=	=	=	=	=	=	=	=	=
00GG]	.	00D	-men.	00G]	.	00B-]	.	00d]	.	00g]	.
=||	=||	=||	=||	=||	=||	=||	=||	=||	=||	=||	=||
*M2/1	*	*M2/1	*	*M2/1	*	*M2/1	*	*M2/1	*	*M2/1	*
*met(C|)	*	*met(C|)	*	*met(C|)	*	*met(C|)	*	*met(C|)	*	*met(C|)	*
!!section: Secunda pars: Ave Maria
!!!OMD: Secunda pars: Ave Maria
0r	.	0G	A-	0r	.	0r	.	1r	.	0r	.
.	.	.	.	.	.	.	.	[1B-y	A-	.	.
=121	=121	=121	=121	=121	=121	=121	=121	=121	=121	=121	=121
0BB-y	A-	1D	-ve	0r	.	0r	.	1B-]	.	1r	.
.	.	[1B-y	Ma-	.	.	.	.	1F	-ve	[1d	A-
=122	=122	=122	=122	=122	=122	=122	=122	=122	=122	=122	=122
1GG	-ve	1B-]	.	0r	.	1r	.	2G	Ma-	1d]	.
.	.	.	.	.	.	.	.	2.G	-ri-	.	.
1E	Ma-	2.G	-ri-	.	.	[1B-y	A-	.	.	1g	-ve
.	.	.	.	.	.	.	.	4A	.	.	.
.	.	.	.	.	.	.	.	4B-y	.	.	.
.	.	4A	.	.	.	.	.	4c	.	.	.
=123	=123	=123	=123	=123	=123	=123	=123	=123	=123	=123	=123
2.BB-y	-ri-	1B-y	.	0r	.	1B-]	.	0d	.	2f	Ma-
.	.	.	.	.	.	.	.	.	.	2.f	-ri-
4C	.	.	.	.	.	.	.	.	.	.	.
1D	.	1A	-a,	.	.	1F	-ve	.	.	.	.
.	.	.	.	.	.	.	.	.	.	4g	.
.	.	.	.	.	.	.	.	.	.	4a	.
.	.	.	.	.	.	.	.	.	.	4b-y	.
=124	=124	=124	=124	=124	=124	=124	=124	=124	=124	=124	=124
1C	-a,	1r	.	0r	.	2G	Ma-	1e-X	.	1cc	.
.	.	.	.	.	.	2.G	-ri-	.	.	.	.
1r	.	1G	a-	.	.	.	.	2d	-a,	2b-y	-a,
.	.	.	.	.	.	4A	.	.	.	.	.
.	.	.	.	.	.	4B-y	.	[2d	gra-	2b-y	gra-
.	.	.	.	.	.	4c	.	.	.	.	.
=125	=125	=125	=125	=125	=125	=125	=125	=125	=125	=125	=125
1F	a-	2D	-ve	0r	.	1d	.	2d]	.	2a	-ti-
.	.	2D	Ma-	.	.	.	.	2A	-ti-	2a	-a
2C	-ve	2.G	-ri-	.	.	1e-X	.	1c	-a	1g	ple-
2C	Ma-	.	.	.	.	.	.	.	.	.	.
.	.	4A	.	.	.	.	.	.	.	.	.
=126	=126	=126	=126	=126	=126	=126	=126	=126	=126	=126	=126
2.D	-ri-	2B-y	.	1r	.	1d	-a,	2.F	ple-	2f	-na,
.	.	2.A	-a,	.	.	.	.	.	.	1f	a-
4E	.	.	.	.	.	.	.	4G	.	.	.
2F	.	.	.	[1A	A-	1r	.	4A	.	.	.
.	.	4G	.	.	.	.	.	4B-y	.	.	.
[2F	-a,	4F	.	.	.	.	.	2c	.	2c	-ve
.	.	4E	.	.	.	.	.	.	.	.	.
=127	=127	=127	=127	=127	=127	=127	=127	=127	=127	=127	=127
4F]	.	1D	.	1A]	.	0r	.	1F	-na,	2d	Ma-
4E	.	.	.	.	.	.	.	.	.	.	.
4D	.	.	.	.	.	.	.	.	.	2.d	-ri-
4C	.	.	.	.	.	.	.	.	.	.	.
1BB-y	.	[1F	a-	1d	-ve	.	.	1B-y	gra-	.	.
.	.	.	.	.	.	.	.	.	.	4e	.
.	.	.	.	.	.	.	.	.	.	4f	.
.	.	.	.	.	.	.	.	.	.	4g	.
=128	=128	=128	=128	=128	=128	=128	=128	=128	=128	=128	=128
1FF	.	2F]	.	2c	Ma-	0r	.	1A	-ti-	2.a	.
.	.	2C	-ve	2.c	-ri-	.	.	.	.	.	.
.	.	.	.	.	.	.	.	.	.	8gL	.
.	.	.	.	.	.	.	.	.	.	8fJ	.
1r	.	2C	Ma-	.	.	.	.	2G	-a	2e	.
.	.	.	.	4B-y	.	.	.	.	.	.	.
.	.	[2D	-ri-	4A	.	.	.	2F	ple-	2f	.
.	.	.	.	4G	.	.	.	.	.	.	.
=129	=129	=129	=129	=129	=129	=129	=129	=129	=129	=129	=129
2r	.	4D]	.	1F	.	0r	.	2.A	.	1d	-a,
.	.	4E	.	.	.	.	.	.	.	.	.
2D	a-	4F	.	.	.	.	.	.	.	.	.
.	.	4G	.	.	.	.	.	4B-y	.	.	.
2AA	-ve	1A	.	1E	.	.	.	1c	.	1r	.
2C	Ma-	.	.	.	.	.	.	.	.	.	.
=130	=130	=130	=130	=130	=130	=130	=130	=130	=130	=130	=130
2.BB-y	-ri-	1B-y	.	1F	-a,	1r	.	2.d	-na,	0r	.
4C	.	.	.	.	.	.	.	4e	.	.	.
2D	.	2A	-a,	1r	.	[1d	gra-	2f	.	.	.
[2BB-y	.	2B-y	gra-	.	.	.	.	[2f	gra-	.	.
=131	=131	=131	=131	=131	=131	=131	=131	=131	=131	=131	=131
4BB-]	.	2B-y	-ti-	0r	.	1d]	.	2f]	.	0r	.
4C	.	.	.	.	.	.	.	.	.	.	.
4D	.	2B-y	-a	.	.	.	.	2f	-ti-	.	.
4E	.	.	.	.	.	.	.	.	.	.	.
2F	.	2A	ple-	.	.	1c	-ti-	2f	-a	.	.
2C	.	[2G	-na,	.	.	.	.	[2e-X	ple-	.	.
=132	=132	=132	=132	=132	=132	=132	=132	=132	=132	=132	=132
1G	-a,	4G]	.	0r	.	0B-y	-a	2e-]	.	2r	.
.	.	4A	.	.	.	.	.	.	.	.	.
.	.	4B-y	.	.	.	.	.	2.d	.	2g	gra-
.	.	4c	.	.	.	.	.	.	.	.	.
2r	.	1d	.	.	.	.	.	.	.	2f	-ti-
.	.	.	.	.	.	.	.	4c	.	.	.
2G	gra-	.	.	.	.	.	.	2B-y	.	2d	-a
=133	=133	=133	=133	=133	=133	=133	=133	=133	=133	=133	=133
2F	-ti-	0r	.	0r	.	0c	ple-	2A	.	1a	ple-
2F	-a	.	.	.	.	.	.	2.c	.	.	.
1E-X	ple-	.	.	.	.	.	.	.	.	1g	.
.	.	.	.	.	.	.	.	4B-y	.	.	.
.	.	.	.	.	.	.	.	2G	.	.	.
=134	=134	=134	=134	=134	=134	=134	=134	=134	=134	=134	=134
2D	-na,	2r	.	1r	.	[0d	-na,	2A	.	0f	-na,
2.BB-y	gra-	2.D	gra-	.	.	.	.	1B-y	-na,	.	.
.	.	.	.	[1F	gra-	.	.	.	.	.	.
4C	.	4E	.	.	.	.	.	.	.	.	.
[2D	.	4F	.	.	.	.	.	2A	gra-	.	.
.	.	4G	.	.	.	.	.	.	.	.	.
=135	=135	=135	=135	=135	=135	=135	=135	=135	=135	=135	=135
4D]	.	2A	.	1F]	.	0d]	.	2F	-ti-	0r	.
4C	.	.	.	.	.	.	.	.	.	.	.
4BB-y	.	2D	-ti-	.	.	.	.	2.B-y	-a	.	.
4AA	.	.	.	.	.	.	.	.	.	.	.
2GG	.	2D	-a	1G	-ti-	.	.	.	.	.	.
.	.	.	.	.	.	.	.	4c	.	.	.
2BB-y	-ti-	2D	ple-	.	.	.	.	4d	.	.	.
.	.	.	.	.	.	.	.	4B-y	.	.	.
=136	=136	=136	=136	=136	=136	=136	=136	=136	=136	=136	=136
2AA	-a	2E	-na,	0A	-a	0r	.	2c	.	2r	.
2.D	ple-	1F	Do-	.	.	.	.	2A	ple-	1a	gra-
.	.	.	.	.	.	.	.	[1d	-na,	.	.
4C	.	.	.	.	.	.	.	.	.	.	.
2D	.	2F	-mi-	.	.	.	.	.	.	2a	-ti-
=137	=137	=137	=137	=137	=137	=137	=137	=137	=137	=137	=137
1GG	-na,	1D	-nus	0G	ple-	2r	.	1d]	.	1b-y	-a
.	.	.	.	.	.	1B-y	gra-	.	.	.	.
1r	.	1E-X	te-	.	.	.	.	1r	.	2.g	ple-
.	.	.	.	.	.	2c	-ti-	.	.	.	.
.	.	.	.	.	.	.	.	.	.	4a	.
=138	=138	=138	=138	=138	=138	=138	=138	=138	=138	=138	=138
2r	.	1D	-cum,	[0F	-na,	0d	-an	0r	.	4b-y	.
.	.	.	.	.	.	.	.	.	.	4a	.
1BB-y	gra-	.	.	.	.	.	.	.	.	2b-y	.
.	.	2r	.	.	.	.	.	.	.	2f	.
2BB-y	-ti-	[2F	Do-	.	.	.	.	.	.	[2b-y	.
=139	=139	=139	=139	=139	=139	=139	=139	=139	=139	=139	=139
1FF	-a	2F]	.	0F]	.	1c	ple-	1.f	Do-	2b-]	.
.	.	2F	-mi-	.	.	.	.	.	.	2a	.
[1BB-y	ple-	2.D	-nus	.	.	1B-y	-na,	.	.	2b-y	-na,
.	.	.	.	.	.	.	.	2f	-mi-	[2b-y	Do-
.	.	4E	.	.	.	.	.	.	.	.	.
=140	=140	=140	=140	=140	=140	=140	=140	=140	=140	=140	=140
2BB-]	.	2F	.	0r	.	1.B-y	Do-	1d	-nus	2b-]	.
2GG	-na,	2G	.	.	.	.	.	.	.	2b-y	-mi-
2r	.	2E-X	te-	.	.	.	.	2.e	te-	2.g	-nus
[2G	gra-	2C	-cum,	.	.	2c	-mi-	.	.	.	.
.	.	.	.	.	.	.	.	4d	.	4a	.
=141	=141	=141	=141	=141	=141	=141	=141	=141	=141	=141	=141
2G]	.	0r	.	2r	.	1d	-nus	2B-y	.	2b-y	.
2D	-ti-	.	.	1A	gra-	.	.	2.f	.	2.a	te-
2F	-a	.	.	.	.	1c	te-	.	.	.	.
.	.	.	.	.	.	.	.	8eL	.	4b-y	.
.	.	.	.	.	.	.	.	8dJ	.	.	.
2C	ple-	.	.	2G	-ti-	.	.	2e	.	2cc	.
=142	=142	=142	=142	=142	=142	=142	=142	=142	=142	=142	=142
2.D	.	2r	.	0F	-a	0f	-cum,	2d	-cum,	1a	-cum,
.	.	1A	gra-	.	.	.	.	2d	gra-	.	.
8CL	.	.	.	.	.	.	.	.	.	.	.
8BB-yJ	.	.	.	.	.	.	.	.	.	.	.
2AA	.	.	.	.	.	.	.	2c	-ti-	1r	.
2BB-y	.	2D	-ti-	.	.	.	.	[2B-y	-a	.	.
=143	=143	=143	=143	=143	=143	=143	=143	=143	=143	=143	=143
2GG	.	1D	-a	1G	ple-	0r	.	2B-]	.	1r	.
2BB-y	.	.	.	.	.	.	.	1d	ple-	.	.
1AA	.	1E	ple-	1A	-na,	.	.	.	.	[1a	Do-
.	.	.	.	.	.	.	.	2c#i	.	.	.
=144	=144	=144	=144	=144	=144	=144	=144	=144	=144	=144	=144
1D	-na,	2F	-na,	1.A	Do-	0r	.	2d	-na,	2a]	.
.	.	1F	Do-	.	.	.	.	2d	Do-	2f	-mi-
2r	.	.	.	.	.	.	.	2c	-mi-	2a	-nus
2GG	Do-	2D	-mi-	2G	-mi-	.	.	[2B-y	-nus	[2b-y	te-
=145	=145	=145	=145	=145	=145	=145	=145	=145	=145	=145	=145
2BB-y	-mi-	2D	-nus	1F	-nus	0r	.	2B-]	.	2b-]	.
2FF	-nus	2F	te-	.	.	.	.	2.c	te-	2.a	.
2C	te-	2E-X	.	1G	te-	.	.	.	.	.	.
.	.	.	.	.	.	.	.	4G	.	4g	.
2GG	.	[2D	-cum,	.	.	.	.	2B-y	.	[2g	.
=146	=146	=146	=146	=146	=146	=146	=146	=146	=146	=146	=146
1D	.	2D]	.	0D	-cum,	0r	.	1A	.	2g]	.
.	.	2.d	gra-	.	.	.	.	.	.	2f#i	.
1GG	-cum,	.	.	.	.	.	.	2G	-cum,	2.g	.
.	.	4c	.	.	.	.	.	.	.	.	.
.	.	4B-y	.	.	.	.	.	[2d	gra-	.	.
.	.	4A	.	.	.	.	.	.	.	4a	.
=147	=147	=147	=147	=147	=147	=147	=147	=147	=147	=147	=147
1r	.	2G	.	0r	.	1d	gra-	4d]	.	4b-y	.
.	.	.	.	.	.	.	.	4e	.	4g	.
.	.	2D	-ti-	.	.	.	.	1f	.	1a	.
2r	.	2F	-a	.	.	2c	-ti-	.	.	.	.
2GG	gra-	[2G	ple-	.	.	2B-y	-a	2d	-ti-	2b-y	-cum,
=148	=148	=148	=148	=148	=148	=148	=148	=148	=148	=148	=148
2C	-ti-	2G]	.	0r	.	1c	ple-	2e	-a	2g	gra-
2FF	-a	1F	-na,	.	.	.	.	2f	ple-	2a	-ti-
2.BB-y	ple-	.	.	.	.	2d	-na,	4B-y	-na,	2b-y	-a
.	.	.	.	.	.	.	.	4c	.	.	.
.	.	[2B-y	Do-	.	.	[2d	Do-	4d	.	[2f	ple-
4C	.	.	.	.	.	.	.	4e	.	.	.
=149	=149	=149	=149	=149	=149	=149	=149	=149	=149	=149	=149
4D	.	2B-]	.	0r	.	2d]	.	1f	.	4f]	.
4E	.	.	.	.	.	.	.	.	.	4g	.
2F	.	2A	-mi-	.	.	2c	-mi-	.	.	2a	.
2BB-y	-na,	2B-y	-nus	.	.	1B-y	-nus	[1f	Do-	2d	-na,
2BB-y	Do-	4F	te-	.	.	.	.	.	.	2b-y	Do-
.	.	4G	.	.	.	.	.	.	.	.	.
=150	=150	=150	=150	=150	=150	=150	=150	=150	=150	=150	=150
2F	-mi-	4A	.	0r	.	1c	te-	2f]	.	2a	-mi-
.	.	4B-y	.	.	.	.	.	.	.	.	.
2C	-nus	2c	.	.	.	.	.	2e	-mi-	2g	-nus
1G	te-	4B-y	.	.	.	1G	-cum,	1d	-nus	1b-y	te-
.	.	4G	.	.	.	.	.	.	.	.	.
.	.	2d	-cum,	.	.	.	.	.	.	.	.
=151	=151	=151	=151	=151	=151	=151	=151	=151	=151	=151	=151
1D	-cum,	2r	.	1F	gra-	0r	.	1f	te-	2a	-cum,
.	.	1d	gra-	.	.	.	.	.	.	2a	gra-
2r	.	.	.	2G	-ti-	.	.	2B-y	-cum,	2g	-ti-
2D	gra-	2d	-ti-	2A	-a	.	.	2d	gra-	2f	-a
=152	=152	=152	=152	=152	=152	=152	=152	=152	=152	=152	=152
2G	-ti-	2B-y	-a	1G	ple-	0r	.	2d	-ti-	1g	ple-
2C	-a	1c	ple-	.	.	.	.	2e	-a	.	.
4F	ple-	.	.	2F	-na,	.	.	1f	ple-	1a	.
4E	.	.	.	.	.	.	.	.	.	.	.
4D	.	[2d	-na,	[2F	Do-	.	.	.	.	.	.
4C	.	.	.	.	.	.	.	.	.	.	.
=153	=153	=153	=153	=153	=153	=153	=153	=153	=153	=153	=153
2BB-y	.	2d]	.	2F]	.	0r	.	2d	-na,	1b-y	-na,
2GG	.	1d	Do-	2G	-mi-	.	.	1g	Do-	.	.
1D	.	.	.	1A	-nus	.	.	.	.	1r	.
.	.	2d	-mi-	.	.	.	.	2f	-mi-	.	.
=154	=154	=154	=154	=154	=154	=154	=154	=154	=154	=154	=154
2GG	-na,	2B-y	-nus	1G	te-	0r	.	2d	-nus	2r	.
1C	Do-	1c	te-	.	.	.	.	2.e-X	te-	1g	Do-
.	.	.	.	1c	-cum,	.	.	.	.	.	.
.	.	.	.	.	.	.	.	4d	.	.	.
2C	-mi-	[2G	.	.	.	.	.	2e-i	.	2cc	-mi-
=155	=155	=155	=155	=155	=155	=155	=155	=155	=155	=155	=155
1GG	-nus	4G]	.	0r	.	0r	.	1d	-cum,	2b-y	-nus
.	.	4A	.	.	.	.	.	.	.	.	.
.	.	2B-y	.	.	.	.	.	.	.	1g	te-
1D	te-	1A	.	.	.	.	.	2r	.	.	.
.	.	.	.	.	.	.	.	[2d	be-	2f#i	.
=156	=156	=156	=156	=156	=156	=156	=156	=156	=156	=156	=156
1GG	.	2G	-cum,	0r	.	0r	.	2d]	.	2g	-cum,
.	.	1G	be-	.	.	.	.	2B-y	-ne-	2d	be-
1C	-cum,	.	.	.	.	.	.	2G	-di-	2e-X	-ne-
.	.	2G	-ne-	.	.	.	.	[2g	.	2e-i	.
=157	=157	=157	=157	=157	=157	=157	=157	=157	=157	=157	=157
1r	.	1A	-di-	0r	.	0c	be-	4g]	.	2c	.
.	.	.	.	.	.	.	.	4f	.	.	.
.	.	.	.	.	.	.	.	1f	.	2.cc	.
1C	be-	1G	-cta	.	.	.	.	.	.	.	.
.	.	.	.	.	.	.	.	.	.	4b-y	.
.	.	.	.	.	.	.	.	2e	-cta	2g	.
=158	=158	=158	=158	=158	=158	=158	=158	=158	=158	=158	=158
2FF	-ne-	2F	tu	0r	.	1c	-ne-	1.f	tu	2a	.
2AA	-di-	2F	in	.	.	.	.	.	.	2.cc	.
1BB-y	-cta	2.D	mu-	.	.	1d	-di-	.	.	.	.
.	.	.	.	.	.	.	.	.	.	4b-y	.
.	.	.	.	.	.	.	.	2f	in	[2b-y	-di-
.	.	4E	.	.	.	.	.	.	.	.	.
=159	=159	=159	=159	=159	=159	=159	=159	=159	=159	=159	=159
1FF	tu,	2F	.	0r	.	1c	-cta	1f	mu-	2b-]	.
.	.	2C	-li-	.	.	.	.	.	.	2a	-cta
2r	.	2.G	-e-	.	.	1B-y	tu	2e-X	-li-	1b-y	tu
2G	be-	.	.	.	.	.	.	[2d	-e-	.	.
.	.	4F	.	.	.	.	.	.	.	.	.
=160	=160	=160	=160	=160	=160	=160	=160	=160	=160	=160	=160
1G	-ne-	2E-X	.	0r	.	1r	.	2d]	.	2g	in
.	.	2E-i	-ri-	.	.	.	.	2c	-ri-	1g	mu-
1A	-di-	1D	-bus,	.	.	1A	in	2d	-bus,	.	.
.	.	.	.	.	.	.	.	[2d	be-	2f#i	-li-
=161	=161	=161	=161	=161	=161	=161	=161	=161	=161	=161	=161
1G	-cta	0r	.	0G	be-	1B-y	.	2d]	.	1.g	-e-
.	.	.	.	.	.	.	.	2d	-ne-	.	.
2C	tu	.	.	.	.	1c	mu-	1e-X	-di-	.	.
2C	in	.	.	.	.	.	.	.	.	2g	-ri-
=162	=162	=162	=162	=162	=162	=162	=162	=162	=162	=162	=162
2.GG	mu-	2r	.	1G	-ne-	2B-y	-li-	1.d	-cta	1g	-bus,
.	.	2D	in	.	.	1B-y	-e-	.	.	.	.
4AA	.	.	.	.	.	.	.	.	.	.	.
2BB-y	.	2D	mu-	1F	-di-	.	.	.	.	1r	.
2FF	-li-	2F	-li-	.	.	[2A	.	2c	tu	.	.
=163	=163	=163	=163	=163	=163	=163	=163	=163	=163	=163	=163
2.C	-e-	2.E	-e-	1G	-cta	2A]	.	2r	.	1cc	be-
.	.	.	.	.	.	1G	.	2c	in	.	.
4BB-y	.	4D	.	.	.	.	.	.	.	.	.
2AA	.	2E	.	1A	tu	.	.	2c	mu-	2cc	-ne-
2AA	-ri-	2C	-ri-	.	.	2F#i	-ri-	2A	-li-	2cc	-di-
=164	=164	=164	=164	=164	=164	=164	=164	=164	=164	=164	=164
2.GG	-bus,	2D	-bus,	1r	.	1G	-bus,	2.B-y	-e-	2.b-y	.
.	.	1D	be-	.	.	.	.	.	.	.	.
4AA	.	.	.	.	.	.	.	4c	-ri-	8aL	.
.	.	.	.	.	.	.	.	.	.	8gJ	.
2BB-y	.	.	.	1B-y	in	1r	.	1d	-bus,	2f	.
2GG	be-	2D	-ne-	.	.	.	.	.	.	2g	-cta
=165	=165	=165	=165	=165	=165	=165	=165	=165	=165	=165	=165
4FF	-ne-	2F	-di-	1A	.	0r	.	0r	.	1c	tu,
4GG	.	.	.	.	.	.	.	.	.	.	.
4AA	.	2.E	.	.	.	.	.	.	.	.	.
4BB-y	.	.	.	.	.	.	.	.	.	.	.
2C	-di-	.	.	1G	mu-	.	.	.	.	1r	.
.	.	4D	.	.	.	.	.	.	.	.	.
2BB-y	-cta	[2d	.	.	.	.	.	.	.	.	.
=166	=166	=166	=166	=166	=166	=166	=166	=166	=166	=166	=166
1AA	tu	2d]	.	2A	-li-	0r	.	1e	in	0r	.
.	.	2c	-cta	1A	-e-	.	.	.	.	.	.
2D	in	4d	tu	.	.	.	.	1f	.	.	.
.	.	4c	.	.	.	.	.	.	.	.	.
2D	mu-	4B-y	.	[2B-y	.	.	.	.	.	.	.
.	.	4A	.	.	.	.	.	.	.	.	.
=167	=167	=167	=167	=167	=167	=167	=167	=167	=167	=167	=167
4E-X	-li-	2G	.	2B-]	.	0r	.	1g	mu-	2r	.
4D	.	.	.	.	.	.	.	.	.	.	.
4C	.	2E	in	1c	.	.	.	.	.	2g	be-
4BB-y	.	.	.	.	.	.	.	.	.	.	.
2AA	.	2F	mu-	.	.	.	.	2f	-li-	2a	-ne-
2BB-y	.	2D	-li-	2d	-ri-	.	.	[2f	-e-	2f	-di-
=168	=168	=168	=168	=168	=168	=168	=168	=168	=168	=168	=168
2FF	-e-	2.A	-e-	1c	-bus,	0r	.	2f]	.	1cc	.
2C	.	.	.	.	.	.	.	1e	.	.	.
.	.	4G	.	.	.	.	.	.	.	.	.
1D	-ri-	2F	.	1r	.	.	.	.	.	[1a	-cta
.	.	2F	-ri-	.	.	.	.	[2d	-ri-	.	.
=169	=169	=169	=169	=169	=169	=169	=169	=169	=169	=169	=169
1AA	-bus,	2E	-bus,	0r	.	0r	.	2d]	.	1a]	.
.	.	2E	mu-	.	.	.	.	2c#i	.	.	.
1D	et	2F	-li-	.	.	.	.	[1d	-bus,	1a	tu
.	.	[2A	-e-	.	.	.	.	.	.	.	.
=170	=170	=170	=170	=170	=170	=170	=170	=170	=170	=170	=170
2BB-y	be-	4A]	.	0r	.	0r	.	1d]	.	1b-y	in
.	.	4G	.	.	.	.	.	.	.	.	.
2GG	-ne-	1G	.	.	.	.	.	.	.	.	.
1AA	-di-	.	.	.	.	.	.	1r	.	1cc	mu-
.	.	2F#i	-ri-	.	.	.	.	.	.	.	.
=171	=171	=171	=171	=171	=171	=171	=171	=171	=171	=171	=171
2GG	-ctus,	1G	-bus,	0r	.	1d	et	2r	.	2b-y	-li-
2G	et	.	.	.	.	.	.	2g	et	1b-y	-e-
2A	be-	2r	.	.	.	2c	be-	2e	be-	.	.
2F	-ne-	2c	et	.	.	2A	-ne-	4f	-ne-	[2a	-ri-
.	.	.	.	.	.	.	.	4e	.	.	.
=172	=172	=172	=172	=172	=172	=172	=172	=172	=172	=172	=172
1G	-di-	2B-y	be-	0r	.	1B-y	-di-	4d	.	2a]	.
.	.	.	.	.	.	.	.	4c	.	.	.
.	.	2G	-ne-	.	.	.	.	2.d	.	1g	.
1D	-ctus,	1A	-di-	.	.	2A	-ctus	.	.	.	.
.	.	.	.	.	.	.	.	4c	.	.	.
.	.	.	.	.	.	[2d	fru-	2A	.	2f#i	.
=173	=173	=173	=173	=173	=173	=173	=173	=173	=173	=173	=173
1r	.	2G	-ctus,	0r	.	2d]	.	2B-y	-di-	0g	-bus,
.	.	2B-y	et	.	.	2d	-ctus	4G	.	.	.
.	.	.	.	.	.	.	.	4A	.	.	.
1G	et	2G	be-	.	.	[1d	ven-	4B-y	.	.	.
.	.	.	.	.	.	.	.	4c	.	.	.
.	.	2B-y	-ne-	.	.	.	.	4d	.	.	.
.	.	.	.	.	.	.	.	4e	.	.	.
=174	=174	=174	=174	=174	=174	=174	=174	=174	=174	=174	=174
2D	be-	1A	-di-	0r	.	2d]	.	1f	-ctus,	0r	.
2F	-ne-	.	.	.	.	1c	-tris	.	.	.	.
1E-X	-di-	2G	-ctus,	.	.	.	.	2r	.	.	.
.	.	2G	et	.	.	[2B-y	tu-	2g	et	.	.
=175	=175	=175	=175	=175	=175	=175	=175	=175	=175	=175	=175
1D	-ctus,	1.d	be-	1F	et	2B-]	.	2f	be-	2r	.
.	.	.	.	.	.	2A	-i,	2f	-ne-	2a	et
1r	.	.	.	2G	be-	1G	Je-	4B-y	-di-	2b-y	be-
.	.	.	.	.	.	.	.	4c	.	.	.
.	.	2B-y	-ne-	2B-y	-ne	.	.	4d	.	2g	-ne-
.	.	.	.	.	.	.	.	4e	.	.	.
=176	=176	=176	=176	=176	=176	=176	=176	=176	=176	=176	=176
2r	.	1c	-di-	1A	di-	0F	-sus,	1f	.	4cc	-di-
.	.	.	.	.	.	.	.	.	.	4b-y	.
2FF	et	.	.	.	.	.	.	.	.	4a	.
.	.	.	.	.	.	.	.	.	.	4g	.
2BB-y	be-	1d	-ctus	2B-y	-ctus	.	.	2f	-ctus	4f	.
.	.	.	.	.	.	.	.	.	.	4e	.
2BB-y	-ne-	.	.	[2F	fru-	.	.	[2f	fru-	[2d	.
=177	=177	=177	=177	=177	=177	=177	=177	=177	=177	=177	=177
1BB-y	-di-	1D	fru-	2F]	.	0r	.	2f]	.	4d]	.
.	.	.	.	.	.	.	.	.	.	4e	.
.	.	.	.	2F	-ctus	.	.	2d	-ctus	4f	.
.	.	.	.	.	.	.	.	.	.	4g	.
2FF	-ctus	2C	-ctus	[1F	ven-	.	.	4f	ven-	2a	.
.	.	.	.	.	.	.	.	4e	.	.	.
[2BB-y	fru-	[2D	ven-	.	.	.	.	4d	.	2f	.
.	.	.	.	.	.	.	.	4c	.	.	.
=178	=178	=178	=178	=178	=178	=178	=178	=178	=178	=178	=178
2BB-]	.	2D]	.	2F]	.	0r	.	2B-y	.	1b-y	-ctus
2GG	-ctis	2D	-tris	1G	-tris	.	.	2B-y	-tris	.	.
2C	ven-	2E	tu-	.	.	.	.	2G	tu-	1r	.
2AA	-tris	2E	-i,	[2A	tu-	.	.	[2c	-i,	.	.
=179	=179	=179	=179	=179	=179	=179	=179	=179	=179	=179	=179
2.D	tu-	2.F	Je-	2A]	.	0r	.	2c]	.	0r	.
.	.	.	.	2B-y	-i,	.	.	1B-y	Je-	.	.
4E	-i,	4G	.	.	.	.	.	.	.	.	.
1C	Je-	1E	.	1c	Je-	.	.	.	.	.	.
.	.	.	.	.	.	.	.	2A	.	.	.
=180	=180	=180	=180	=180	=180	=180	=180	=180	=180	=180	=180
2BB-y	-sus,	1F	-sus,	0d	-sus,	1r	.	1B-y	-sus,	2r	.
2BB-y	fru-	.	.	.	.	.	.	.	.	1b-y	fru-
2BB-y	-ctus	1F	fru-	.	.	2r	.	2r	.	.	.
2BB-y	ven-	.	.	.	.	[2d	fru-	[2B-y	fru-	2b-y	-ctus
=181	=181	=181	=181	=181	=181	=181	=181	=181	=181	=181	=181
2GG	-tris	2G	-ctus	0r	.	2d]	.	2B-]	.	1.b-y	ven-
2.BB-y	tu-	2F	ven-	.	.	2d	-ctus	2B-y	-ctus	.	.
.	.	2D	-tris	.	.	[1d	ven-	1f	ven-	.	.
4C	.	.	.	.	.	.	.	.	.	.	.
4D	.	[2D	tu-	.	.	.	.	.	.	2a	-tris
4E	.	.	.	.	.	.	.	.	.	.	.
=182	=182	=182	=182	=182	=182	=182	=182	=182	=182	=182	=182
1.F	.	4D]	.	0r	.	2d]	.	2f	-tris	1a	tu-
.	.	4E	.	.	.	.	.	.	.	.	.
.	.	4F	.	.	.	1c	-tris	2.f	tu-	.	.
.	.	4G	.	.	.	.	.	.	.	.	.
.	.	2A	.	.	.	.	.	.	.	2a	-i
.	.	.	.	.	.	.	.	4e	.	.	.
2BB-y	-i,	2B-y	-i	.	.	[2B-y	tu-	2d	.	4f	Je-
.	.	.	.	.	.	.	.	.	.	4g	.
=183	=183	=183	=183	=183	=183	=183	=183	=183	=183	=183	=183
1F	Je-	4F	Je-	0r	.	2B-]	.	2c	-i,	4a	.
.	.	4G	.	.	.	.	.	.	.	4b-y	.
.	.	4A	.	.	.	2A	-i,	1f	Je-	2.cc	.
.	.	4B-y	.	.	.	.	.	.	.	.	.
1C	-sus,	2c	.	.	.	1G	Je-	.	.	.	.
.	.	.	.	.	.	.	.	.	.	4b-y	.
.	.	[2c	-sus,	.	.	.	.	2e	.	2g	.
=184	=184	=184	=184	=184	=184	=184	=184	=184	=184	=184	=184
1r	.	4c]	.	1r	.	0F	-sus.	2f	-sus,	1a	-sus,
.	.	4B-y	.	.	.	.	.	.	.	.	.
.	.	4A	.	.	.	.	.	1c	fru-	.	.
.	.	4G	.	.	.	.	.	.	.	.	.
2r	.	2A	.	2r	.	.	.	.	.	2r	.
[2FF	fru-	2A	fru-	[2F	fru-	.	.	2c	-ctus	[2a	fru-
=185	=185	=185	=185	=185	=185	=185	=185	=185	=185	=185	=185
2FF]	.	1c	-ctus	2F]	.	0r	.	1f	ven-	2a]	.
2FF	-ctus	.	.	2F	-ctus	.	.	.	.	2a	-ctus
[1BB-y	ven-	1d	ven-	[1F	ven-	.	.	2f	-tris	2b-y	ven-
.	.	.	.	.	.	.	.	[2d	tu-	2f	-tris
=186	=186	=186	=186	=186	=186	=186	=186	=186	=186	=186	=186
2BB-]	.	2B-y	-tris	2F]	.	0r	.	2d]	.	2.b-y	tu-
1GG	-tris	1B-y	tu-	1G	-tris	.	.	2d	-i,	.	.
.	.	.	.	.	.	.	.	.	.	4a	.
.	.	.	.	.	.	.	.	2.d	Je-	2g	.
[2D	tu-	2A	-i,	[2A	tu-	.	.	.	.	[2f	-i
.	.	.	.	.	.	.	.	4e	.	.	.
=187	=187	=187	=187	=187	=187	=187	=187	=187	=187	=187	=187
2D]	.	2.F	Je-	2A]	.	1d	San-	1f	.	2f]	.
2BB-y	-i,	.	.	1B-y	-i,	.	.	.	.	1b-y	Je-
.	.	4G	.	.	.	.	.	.	.	.	.
1F	Je-	2A	.	.	.	2c	-cta	1f	-sus.	.	.
.	.	2F	.	2c	Je-	2c	Ma-	.	.	2a	.
=188	=188	=188	=188	=188	=188	=188	=188	=188	=188	=188	=188
2BB-y	-sus.	1F	-sus.	0d	-sus.	1B-y	-ri-	2r	.	2b-y	-sus.
2BB-y	San-	.	.	.	.	.	.	2F	San-	2f	San-
2D	-cta	1r	.	.	.	1A	-a,	2F	-cta	2f	-cta
2D	Ma-	.	.	.	.	.	.	2F	Ma-	2f	Ma-
=189	=189	=189	=189	=189	=189	=189	=189	=189	=189	=189	=189
1D	-ri-	0r	.	0r	.	2r	.	1A	-ri-	1f	-ri-
.	.	.	.	.	.	1F	Re-	.	.	.	.
2BB-y	-a,	.	.	.	.	.	.	2B-y	-a,	2d	-a,
2GG	Re-	.	.	.	.	[2G	-gi-	2B-y	Re-	2d	Re-
=190	=190	=190	=190	=190	=190	=190	=190	=190	=190	=190	=190
2D	-gi-	1r	.	0r	.	2G]	.	2A	-gi-	2d	-gi-
2D	-na	.	.	.	.	2F	-na	2A	-na	2d	-na
1C	ce-	2r	.	.	.	1G	ce-	1c	ce-	1e	ce-
.	.	2C	San-	.	.	.	.	.	.	.	.
=191	=191	=191	=191	=191	=191	=191	=191	=191	=191	=191	=191
1FF	.	2C	-cta	1F	San-	1A	-li,	1c	-li,	1f	-li,
.	.	2C	Ma-	.	.	.	.	.	.	.	.
1C	-li,	1E	-ri-	2G	-cta	1r	.	1c	san-	1r	.
.	.	.	.	2G	Ma-	.	.	.	.	.	.
=192	=192	=192	=192	=192	=192	=192	=192	=192	=192	=192	=192
2r	.	2F	-a,	1A	-ri-	0r	.	2c	-cta,	1f	san-
2FF	san-	2F	Re-	.	.	.	.	2c	Ma-	.	.
2BB-y	-cta	2D	-gi-	1B-y	-a,	.	.	1d	-ri-	2f	-cta
2GG	Ma-	2B-y	-na	.	.	.	.	.	.	2g	Ma-
=193	=193	=193	=193	=193	=193	=193	=193	=193	=193	=193	=193
4D	-ri-	2A	ce-	2r	.	0r	.	1f	-a,	0a	-ri-
4E	.	.	.	.	.	.	.	.	.	.	.
4F	.	2.D	-li,	1d	Re-	.	.	.	.	.	.
4G	.	.	.	.	.	.	.	.	.	.	.
2.A	.	.	.	.	.	.	.	1f	Re-	.	.
.	.	4E	.	.	.	.	.	.	.	.	.
.	.	4F	.	[2c	-gi-	.	.	.	.	.	.
4G	.	4G	.	.	.	.	.	.	.	.	.
=194	=194	=194	=194	=194	=194	=194	=194	=194	=194	=194	=194
4F	.	2A	.	2c]	.	0r	.	1f	-gi-	1a	-a,
4E	.	.	.	.	.	.	.	.	.	.	.
2D	.	1A	san-	2d	-na	.	.	.	.	.	.
2AA	-a,	.	.	1c	ce-	.	.	2f	-na	1r	.
2C	Re-	2G	-cta	.	.	.	.	2e-X	.	.	.
=195	=195	=195	=195	=195	=195	=195	=195	=195	=195	=195	=195
4GG	-gi-	2G	Ma-	1B-y	-li,	2r	.	1d	ce-	0r	.
4AA	.	.	.	.	.	.	.	.	.	.	.
4BB-y	.	1F	-ri-	.	.	1d	dul-	.	.	.	.
4C	.	.	.	.	.	.	.	.	.	.	.
2D	.	.	.	1r	.	.	.	2A	-li,	.	.
2AA	-na	[2E	-a,	.	.	[2c	-cis	2A	dul-	.	.
=196	=196	=196	=196	=196	=196	=196	=196	=196	=196	=196	=196
2C	ce-	2E]	.	0r	.	2c]	.	4G	-cis	2r	.
.	.	.	.	.	.	.	.	4A	.	.	.
1BB-y	-li,	2F	Re-	.	.	2d	et	4B-y	.	1f	san-
.	.	.	.	.	.	.	.	4c	.	.	.
.	.	[1D	-gi-	.	.	1B-y	pi-	[1d	.	.	.
2GG	dul-	.	.	.	.	.	.	.	.	[2g	-cta
=197	=197	=197	=197	=197	=197	=197	=197	=197	=197	=197	=197
2D	-cis	2D]	.	0r	.	1A	-a,	2d]	.	2g]	.
2D	et	2A	-na	.	.	.	.	2d	et	2f#i	Ma-
1G	pi-	1B-y	ce-	.	.	1r	.	2.d	pi-	1g	-ri-
.	.	.	.	.	.	.	.	4e	.	.	.
=198	=198	=198	=198	=198	=198	=198	=198	=198	=198	=198	=198
2.D	-a,	1A	-li,	0r	.	2r	.	1f	-a,	2a	-a,
.	.	.	.	.	.	1F	o	.	.	1d	dul-
4C	.	.	.	.	.	.	.	.	.	.	.
2BB-y	.	1B-y	dul-	.	.	.	.	1r	.	.	.
2GG	dul-	.	.	.	.	[2G	ma-	.	.	2d	-cis
=199	=199	=199	=199	=199	=199	=199	=199	=199	=199	=199	=199
2C	-cis	2G	-cis	2r	.	2G]	.	1c	dul-	2e	et
2FF	et	2F	et	1F	dul-	2A	-ter	.	.	1f	pi-
2.BB-y	pi-	1D	pi-	.	.	1B-y	De-	2d	-cis	.	.
.	.	.	.	[2G	-cis	.	.	2d	et	2d	-a,
4C	.	.	.	.	.	.	.	.	.	.	.
=200	=200	=200	=200	=200	=200	=200	=200	=200	=200	=200	=200
1D	-a,	2D	-a,	2G]	.	1A	-i,	1d	pi-	2r	.
.	.	2D	dul-	2F	et	.	.	.	.	2a	dul-
1r	.	2F	-cis	1A	pi-	1r	.	2c	-a,	2a	-cis
.	.	2D	et	.	.	.	.	2f	dul-	2a	et
=201	=201	=201	=201	=201	=201	=201	=201	=201	=201	=201	=201
1r	.	1G	pi-	1B-y	-a,	1r	.	2d	-cis	1g	pi-
.	.	.	.	.	.	.	.	2e	et	.	.
2.D	o	2F	-a,	1r	.	[1F	o	1f	pi-	1a	-a,
.	.	[2D	o	.	.	.	.	.	.	.	.
4C	.	.	.	.	.	.	.	.	.	.	.
=202	=202	=202	=202	=202	=202	=202	=202	=202	=202	=202	=202
2.BB-y	.	2D]	.	2r	.	1F]	.	1f	-a,	2r	.
.	.	2D	ma-	1d	o-	.	.	.	.	1b-y	o
4AA	.	.	.	.	.	.	.	.	.	.	.
2GG	.	2D	-ter	.	.	[1G	ma-	1r	.	.	.
[2C	ma-	[2E-X	De-	[2c	-ma-	.	.	.	.	[2g	ma-
=203	=203	=203	=203	=203	=203	=203	=203	=203	=203	=203	=203
2C]	.	2E-]	.	2c]	.	1G]	.	1r	.	2g]	.
2GG	-ter	2D	-i,	2B-y	-ter	.	.	.	.	2g	-ter
1D	De-	2r	.	1A	De-	1F	-ter	1d	o	1a	De-
.	.	2D	o	.	.	.	.	.	.	.	.
=204	=204	=204	=204	=204	=204	=204	=204	=204	=204	=204	=204
1GG	-i,	2D	ma-	1B-y	-i,	0G	De-	2d	ma-	2g	-i,
.	.	2D	-ter	.	.	.	.	2d	-ter	2g	o
1r	.	1E-X	De-	1r	.	.	.	2.B-y	De-	2g	ma-
.	.	.	.	.	.	.	.	.	.	2g	-ter
.	.	.	.	.	.	.	.	4c	.	.	.
=205	=205	=205	=205	=205	=205	=205	=205	=205	=205	=205	=205
0r	.	0D	-i,	1r	.	0A	-i,	1d	-i,	2.f	De-
.	.	.	.	.	.	.	.	.	.	4g	.
.	.	.	.	[1d	o	.	.	1f	o	[1a	-i
=206	=206	=206	=206	=206	=206	=206	=206	=206	=206	=206	=206
2r	.	2r	.	1d]	.	0r	.	1.f	ma-	1a]	.
2D	o	2A	o-	.	.	.	.	.	.	.	.
2F	ma-	2A	-ra	[1c	ma-	.	.	.	.	1r	.
2F	-ter	2A	pro	.	.	.	.	2c	-ter	.	.
=207	=207	=207	=207	=207	=207	=207	=207	=207	=207	=207	=207
1E-X	De-	1G	no-	1c]	.	0r	.	1g	De-	1r	.
2D	-i,	[1A	-bis,	1d	-ter	.	.	2f	-i,	1a	o-
2D	o-	.	.	.	.	.	.	2f	o-	.	.
=208	=208	=208	=208	=208	=208	=208	=208	=208	=208	=208	=208
2F	-ra	1A]	.	0c	De-	0r	.	2f	-ra	2a	-ra
2F	pro	.	.	.	.	.	.	2f	pro	2a	pro
1C	no-	1r	.	.	.	.	.	1e-X	no-	[1g	no-
=209	=209	=209	=209	=209	=209	=209	=209	=209	=209	=209	=209
2G	-bis	2r	.	0B-y	-i,	1d	o-	1d	-bis,	1g]	.
2GG	pec-	1B-y	o-	.	.	.	.	.	.	.	.
1BB-y	-ca-	.	.	.	.	2d	-ra	2r	.	1f	-bis
.	.	2B-y	-ra	.	.	2d	pro	[2f	o-	.	.
=210	=210	=210	=210	=210	=210	=210	=210	=210	=210	=210	=210
2.D	-to-	2B-y	pro	0r	.	1d	no-	2f]	.	1r	.
.	.	1A	no-	.	.	.	.	2f	-ra	.	.
4C	.	.	.	.	.	.	.	.	.	.	.
2AA	.	.	.	.	.	1c	-bis	2f	pro	2r	.
2C	-ri-	[2G	-bis	.	.	.	.	[2e-X	no-	[2g	pec-
=211	=211	=211	=211	=211	=211	=211	=211	=211	=211	=211	=211
1GG	-bus,	2G]	.	0r	.	1.B-y	pec-	2e-]	.	4g]	.
.	.	.	.	.	.	.	.	.	.	4a	.
.	.	1G	pec-	.	.	.	.	1d	-bis	2b-y	.
1r	.	.	.	.	.	.	.	.	.	2g	-ca-
.	.	2D	-ca-	.	.	2A	-ca-	2f	pec-	2a	-to-
=212	=212	=212	=212	=212	=212	=212	=212	=212	=212	=212	=212
0r	.	2.G	-to-	0r	.	1B-y	-to-	2e-i	-ca-	2g	-ri-
.	.	.	.	.	.	.	.	1d	-to-	1b-y	-bus,
.	.	4F	.	.	.	.	.	.	.	.	.
.	.	2E-X	.	.	.	1G	-ri-	.	.	.	.
.	.	2E-i	-ri-	.	.	.	.	2c	-ri-	4a	.
.	.	.	.	.	.	.	.	.	.	4g	.
=213	=213	=213	=213	=213	=213	=213	=213	=213	=213	=213	=213
2r	.	[0D	-bus,	1F	o-	1A	-bus,	0d	-bus,	1f	.
2D	ut	.	.	.	.	.	.	.	.	.	.
2BB-y	cum	.	.	2F	-ra	1r	.	.	.	2r	.
2BB-y	e-	.	.	2F	pro	.	.	.	.	2b-y	ut
=214	=214	=214	=214	=214	=214	=214	=214	=214	=214	=214	=214
1BB-y	-le-	1D]	.	1F	no-	1r	.	2r	.	2b-y	cum
.	.	.	.	.	.	.	.	2d	ut	2b-y	e-
2GG	-ctis	2r	.	1G	-bis	1d	ut	2d	cum	1b-y	-le-
2GG	te	2D	ut	.	.	.	.	2g	e-	.	.
=215	=215	=215	=215	=215	=215	=215	=215	=215	=215	=215	=215
2D	vi-	2F	cum	1.A	pec-	2d	cum	1f	-le-	2a	-ctis
2D	-de-	2F	e-	.	.	2d	e-	.	.	2a	te
1D	-a-	1F	-le-	.	.	1d	-le-	2f	-ctis	2.f	vi-
.	.	.	.	2B-y	-ca-	.	.	2d	te	.	.
.	.	.	.	.	.	.	.	.	.	4g	.
=216	=216	=216	=216	=216	=216	=216	=216	=216	=216	=216	=216
1AA	-mus,	2E	-ctis	1A	-to-	1c	-ctis	2.e	vi-	4a	.
.	.	.	.	.	.	.	.	.	.	4b-y	.
.	.	2A	te	.	.	.	.	.	.	4cc	.
.	.	.	.	.	.	.	.	4d	.	4b-y	.
1r	.	2A	vi-	1c	-ri-	2r	.	2e	.	4a	.
.	.	.	.	.	.	.	.	.	.	4g	.
.	.	2F	-de-	.	.	2A	te	2f	-de-	2a	.
=217	=217	=217	=217	=217	=217	=217	=217	=217	=217	=217	=217
1r	.	1G	-a-	1B-y	-bus,	2B-y	vi-	1d	-a-	2g	-de-
.	.	.	.	.	.	2G	-de-	.	.	1g	-a-
2r	.	[1D	-mus,	1r	.	1A	-a-	2d	-mus,	.	.
2D	ut	.	.	.	.	.	.	2A	ut	2f#i	.
=218	=218	=218	=218	=218	=218	=218	=218	=218	=218	=218	=218
2GG	cum	0D]	.	1r	.	2G	-mus,	2B-y	cum	1g	-mus,
2GG	e-	.	.	.	.	2B-y	ut	2G	e-	.	.
1BB-y	-le-	.	.	1F	ut	2B-y	cum	1d	-le-	2r	.
.	.	.	.	.	.	2B-y	e-	.	.	[2b-y	ut
=219	=219	=219	=219	=219	=219	=219	=219	=219	=219	=219	=219
2BB-y	-ctis	2r	.	2F	cum	1B-y	-le-	2d	-ctis	2b-]	.
2BB-y	te	2D	ut	2F	e-	.	.	2d	te	2f	cum
2FF	vi-	2F	cum	1F	-le-	1A	-ctis	2c	vi-	2a	e-
2FF	-de-	2C	e-	.	.	.	.	2c	-de-	[2cc	-le-
=220	=220	=220	=220	=220	=220	=220	=220	=220	=220	=220	=220
1C	-a-	1E-X	-le-	1G	-ctis	2r	.	1c	-a-	2cc]	.
.	.	.	.	.	.	2c	te	.	.	1g	-ctis
1GG	-mus,	2D	-ctis	2r	.	2B-y	vi-	2d	-mus,	.	.
.	.	2D	te	2B-y	te	2d	-de-	2g	te	2g	te
=221	=221	=221	=221	=221	=221	=221	=221	=221	=221	=221	=221
0r	.	2F	vi-	2A	vi-	1c	-a-	2f	vi-	2a	vi-
.	.	2C	-de-	2c	-de-	.	.	2e-X	-de-	2.g	-de-
.	.	1G	-a-	1B-y	-a-	2.d	-mus	2d	-a-	.	.
.	.	.	.	.	.	.	.	.	.	4a	.
.	.	.	.	.	.	.	.	2G	-mus,	2b-y	.
.	.	.	.	.	.	4e	.	.	.	.	.
=222	=222	=222	=222	=222	=222	=222	=222	=222	=222	=222	=222
2r	.	1F	-mus,	2c	-mus,	0f	.	2r	.	1a	-a-
2FF	ut	.	.	2A	ut	.	.	2c	ut	.	.
2F	cum	1r	.	2A	cum	.	.	2c	cum	1a	-mus,
2F	e-	.	.	2A	e-	.	.	2c	e-	.	.
=223	=223	=223	=223	=223	=223	=223	=223	=223	=223	=223	=223
1D	-le-	2r	.	1A	-le-	1r	.	2.f	-le-	2r	.
.	.	2D	ut	.	.	.	.	.	.	2a	ut
.	.	.	.	.	.	.	.	4e	.	.	.
[1GG	-ctis	2D	cum	1B-y	-ctis	2r	.	2.d	.	2g	cum
.	.	2D	e-	.	.	2d	ut	.	.	2g	e-
.	.	.	.	.	.	.	.	4c	.	.	.
=224	=224	=224	=224	=224	=224	=224	=224	=224	=224	=224	=224
1GG]	.	1G	-le-	2r	.	2d	cum	1B-y	.	1g	-le-
.	.	.	.	2G	te	2d	e-	.	.	.	.
1r	.	2D	-ctis	2A	vi-	[1d	-le-	2A	-ctis	2f	-ctis
.	.	2D	te	2F	-de-	.	.	2f	te	2a	te
=225	=225	=225	=225	=225	=225	=225	=225	=225	=225	=225	=225
2r	.	2G	vi-	1G	-a-	2d]	.	2d	vi-	2b-y	vi-
2C	te	2C	-de-	.	.	1c	-ctis	2e	-de-	2g	-de-
2FF	vi-	2C	-a-	2.F	.	.	.	2f	-a-	1a	-a-
2FF	-de-	[2F	-mus,	.	.	2A	te	2c	.	.	.
.	.	.	.	4E	.	.	.	.	.	.	.
=226	=226	=226	=226	=226	=226	=226	=226	=226	=226	=226	=226
4BB-y	-a-	2F]	.	[0Dl	-mus.	1B-y	vi-	2d	-mus.	2.f	-mus.
4C	.	.	.	.	.	.	.	.	.	.	.
4D	.	2F	te	.	.	.	.	2.f	A-	.	.
4E	.	.	.	.	.	.	.	.	.	4g	.
2F	.	2F	vi-	.	.	2A	-de-	.	.	2a	.
.	.	.	.	.	.	.	.	4e	.	.	.
2BB-y	-mus.	2F	-de-	.	.	[2d	-a-	4d	.	[2b-y	A-
.	.	.	.	.	.	.	.	4c	.	.	.
=227	=227	=227	=227	=227	=227	=227	=227	=227	=227	=227	=227
4GG	A-	1G	-a-	0D_	.	4d]	.	2B-y	.	4b-]	.
4AA	.	.	.	.	.	4c	.	.	.	4a	.
4BB-y	.	.	.	.	.	2B-y	.	2.d	.	1g	.
4C	.	.	.	.	.	.	.	.	.	.	.
1D	.	2D	-mus.	.	.	1A	.	.	.	.	.
.	.	.	.	.	.	.	.	4c	.	.	.
.	.	[2d	A-	.	.	.	.	2A	.	2f#i	.
=228	=228	=228	=228	=228	=228	=228	=228	=228	=228	=228	=228
[0GGl	-men.	4d]	.	0D_	.	[0Gl	-mus.	2B-y	.	[0gl	-men.
.	.	4c	.	.	.	.	.	.	.	.	.
.	.	4B-y	.	.	.	.	.	2G	.	.	.
.	.	4A	.	.	.	.	.	.	.	.	.
.	.	1B-y	.	.	.	.	.	1d	.	.	.
=229	=229	=229	=229	=229	=229	=229	=229	=229	=229	=229	=229
00GG]	.	00B-yl	-men.	00D]	.	00G]	.	00dl	-men.	00g]	.
==	==	==	==	==	==	==	==	==	==	==	==
*-	*-	*-	*-	*-	*-	*-	*-	*-	*-	*-	*-
!!!system-decoration: [*]
!!!RDF**kern: i = editorial accidental
!!!RDF**kern: l = terminal long
!!!ENC: Benjamin Ory
!!!END: 2024/2/12
!!!EED: Benjamin Ory
!!!EEV: 2024/02/12
!!!YEC: Copyright 2024 Benjamin Ory, All Rights Reserved
!!!ONB: Translated from MusicXML on 2024/02/12
